!!!!SEGMENT: pl-wumfc--r304--001-002_paderewski-ignacy-jan--suite-scherzo.krn
!!!cenid: 18xx:3221
!!!COM: Paderewski, Ignacy Jan
!!!COM-rismID: pe30029943
!!!CDT: 1860/11/18-1941/06/29
!!!CNT: Polish
!!!OPR: [Suite]
!!!OTL: Scherzo
!!!OMV: 002
!!!PDT:
!!!AGN:
!!!SMS-siglum: PL-Wumfc
!!!SMS-shelfmark: R304
!!!SMS-shelfwork: 001-002 M
!!!SMS-variant:
!!!SMS-altvar:
!!!NIFC-rismSourceID: 1001159515
!!!NIFC-rismChildID: 1001159515
!!!NIFC-islandoraID: pl-wumfc:639
!!!URL-pdf-islandora: https://repozytorium.nifc.pl/islandora/object/pl-wumfc%3A639/datastream/PDF/view
!!!URL-scan: https://polish.musicsources.pl/pl/lokalizacje/galeria/rekopisy/4725 @EN{Scan on Polish Music Sources Website} @PL{Skany w portalu Dziedzictwo Muzyki Polskiej w otwartym dostępie}
!!!IIIF:
!!!ONB-nifc: UWAGA: obsada vl (2), vla, vlc, cb. Skany 0005-0008 (razem z Allegretto grazioso)
!!!AIN: 1 cbass 1 cello 1 viola 2 violn
!!!key: e
!!!filter-modern: sic -sq | shed -e "s/TX(.*):t=P:/tx$1:t=P:/LG" | shed -e "s/yy//" | shed -e "s/^(X?)rep$/$1REP/I" | shed -e "s/:rj/:RJ/L" | shed -k -e "s/([^a-gA-Gn#X-])[<>]/$1/g" | shed -e "s/LO:DY:(a|b|rj)/LO:dy:$1/L" | shed -k -e "s/LO:N:vis/LO:n:vis:/L" | shed -e "s/-//B" | autostem -r | modori -m
**kern	**dynam	**kern	**dynam	**kern	**dynam	**kern	**dynam	**kern	**fing	**dynam
*part5	*part5	*part4	*part4	*part3	*part3	*part2	*part2	*part1	*	*part1
*staff5	*	*staff4	*	*staff3	*	*staff2	*	*staff1	*	*
*Icbass	*	*Icello	*	*Iviola	*	*Ivioln	*	*Ivioln	*	*
*I"Contrabbassi	*	*I"Violoncelli	*	*I"Viola	*	*I"Violino II	*	*I"Violino I	*	*
*I'cb	*	*I'vlc	*	*I'vla	*	*I'vl 2	*	*I'vl 1	*	*
*clefF4	*	*clefF4	*	*clefC3	*	*clefG2	*	*clefG2	*	*
*Trd0c0	*	*	*	*	*	*	*	*	*	*
*ICstr	*	*ICstr	*	*ICstr	*	*ICstr	*	*ICstr	*	*
*k[f#]	*	*k[f#]	*	*k[f#]	*	*k[f#]	*	*k[f#]	*	*
*e:	*	*e:	*	*e:	*	*e:	*	*e:	*	*
*M3/8	*	*M3/8	*	*M3/8	*	*M3/8	*	*M3/8	*	*
*>[A,A,B,C,A,A,B]	*>[A,A,B,C,A,A,B]	*>[A,A,B,C,A,A,B]	*>[A,A,B,C,A,A,B]	*>[A,A,B,C,A,A,B]	*>[A,A,B,C,A,A,B]	*>[A,A,B,C,A,A,B]	*>[A,A,B,C,A,A,B]	*>[A,A,B,C,A,A,B]	*	*>[A,A,B,C,A,A,B]
=1	=1	=1	=1	=1	=1	=1	=1	=1	=1	=1
*>A	*>A	*>A	*>A	*>A	*>A	*>A	*>A	*>A	*	*>A
!	!	!	!	!	!	!	!LO:DY:a:t=pp.	!	!	!
4.r	.	4.r	.	4.r	.	16b'\LL	pp	4.r	.	.
.	.	.	.	.	.	16b'\	.	.	.	.
.	.	.	.	.	.	16b'\	.	.	.	.
.	.	.	.	.	.	16b'\	.	.	.	.
.	.	.	.	.	.	16b'\	.	.	.	.
.	.	.	.	.	.	16b'\JJ	.	.	.	.
=2	=2	=2	=2	=2	=2	=2	=2	=2	=2	=2
!	!	!	!	!	!	!	!	!	!LO:MO:mod=*null:null	!
*	*	*	*	*	*	*tremolo	*	*	*below	*
4.r	.	4.r	.	4.r	.	16b'\LL	.	4.r	.	.
.	.	.	.	.	.	16b'\J	.	.	.	.
.	.	.	.	.	.	16b'\L	.	.	.	.
.	.	.	.	.	.	16b'\J	.	.	.	.
.	.	.	.	.	.	16b'\L	.	.	.	.
.	.	.	.	.	.	16b'\JJ	.	.	.	.
=3	=3	=3	=3	=3	=3	=3	=3	=3	=3	=3
.	.	.	.	.	.	.	.	16qqaa/LL	.	.
.	.	.	.	.	.	.	.	16qqbb/JJ	.	.
!	!	!	!	!	!	!	!	!	!	!LO:MO:null:mod=!LO&colon;DY&colon;ed=brack
!	!	!	!	!	!	!	!	!	!	!
!	!	!	!	!	!	!LO:TX:t=P:problem=tremolo ósemkowe wygląda jak ćwierćnutowe\global	!	!	!	!LO:MO:null:mod=pp
4.r	.	4.r	.	4.r	.	16b'\LL	.	4.ccc^\	.	.
!	!	!	!	!	!	!LO:SIC:s=16b'	!	!	!	!
.	.	.	.	.	.	16b'\JJ	.	.	.	.
!	!	!	!	!	!	!LO:SIC:s=16b'	!	!	!	!
.	.	.	.	.	.	16b'\LL	.	.	.	.
!	!	!	!	!	!	!LO:SIC:s=16b'	!	!	!	!
.	.	.	.	.	.	16b'\JJ	.	.	.	.
!	!	!	!	!	!	!LO:SIC:s=16b'	!	!	!	!
.	.	.	.	.	.	16b'\LL	.	.	.	.
.	.	.	.	.	.	16b'\JJ	.	.	.	.
=4	=4	=4	=4	=4	=4	=4	=4	=4	=4	=4
.	.	.	.	.	.	.	.	16qqaa/LL	.	.
.	.	.	.	.	.	.	.	16qqbb/JJ	.	.
4.r	.	4.r	.	4.r	.	16b'\LL	.	4.ccc^\	.	.
!	!	!	!	!	!	!LO:SIC:s=16b'	!	!	!	!
.	.	.	.	.	.	16b'\JJ	.	.	.	.
!	!	!	!	!	!	!LO:SIC:s=16b'	!	!	!	!
.	.	.	.	.	.	16b'\LL	.	.	.	.
!	!	!	!	!	!	!LO:SIC:s=16b'	!	!	!	!
.	.	.	.	.	.	16b'\JJ	.	.	.	.
!	!	!	!	!	!	!LO:SIC:s=16b'	!	!	!	!
.	.	.	.	.	.	16b'\LL	.	.	.	.
.	.	.	.	.	.	16b'\JJ	.	.	.	.
=5	=5	=5	=5	=5	=5	=5	=5	=5	=5	=5
*	*	*	*	*	*	*rep	*	*	*	*
4.r	.	4.r	.	4.r	.	16b'\LL	.	(16bb\LL	.	.
!	!	!	!	!	!	!LO:SIC:s=16b'	!	!	!	!
.	.	.	.	.	.	16b'\JJ	.	16aa\)	.	.
!	!	!	!	!	!	!LO:SIC:s=16b'	!	!	!	!
.	.	.	.	.	.	16b'\LL	.	16gg'\	.	.
!	!	!	!	!	!	!LO:SIC:s=16b'	!	!	!	!
.	.	.	.	.	.	16b'\JJ	.	16aa'\	.	.
!	!	!	!	!	!	!LO:SIC:s=16b'	!	!	!	!
.	.	.	.	.	.	16b'\LL	.	16bb'\	.	.
.	.	.	.	.	.	16b'\JJ	.	16gg'\JJ	.	.
*	*	*	*	*	*	*Xrep	*	*	*	*
=6	=6	=6	=6	=6	=6	=6	=6	=6	=6	=6
*	*	*	*	*	*	*rep	*	*	*	*
.	.	.	.	(>(>16qqB\LL	.	.	.	.	.	.
.	.	.	.	16qqc#X\JJ)	.	.	.	.	.	.
!	!	!	!	!	!LO:MO:null:mod=!LO&colon;DY&colon;ed=brack	!	!	!	!	!
!	!	!	!	!	!	!	!	!	!	!
!	!	!	!	!	!LO:MO:null:mod=pp	!	!	!	!	!
4.r	.	4.r	.	4.d#X^\)	.	16b'\LL	.	(8aa\L	.	.
!	!	!	!	!	!	!LO:SIC:s=16b'	!	!	!	!
.	.	.	.	.	.	16b'\JJ	.	.	.	.
!	!	!	!	!	!	!LO:SIC:s=16b'	!	!	!	!
.	.	.	.	.	.	16b'\LL	.	8gg\	.	.
!	!	!	!	!	!	!LO:SIC:s=16b'	!	!	!	!
.	.	.	.	.	.	16b'\JJ	.	.	.	.
!	!	!	!	!	!	!LO:SIC:s=16b'	!	!	!	!
.	.	.	.	.	.	16b'\LL	.	8ff#\J	.	.
.	.	.	.	.	.	16b'\JJ	.	.	.	.
*	*	*	*	*	*	*Xrep	*	*	*	*
=7	=7	=7	=7	=7	=7	=7	=7	=7	=7	=7
.	.	.	.	(>(>16qqB\LL	.	.	.	.	.	.
.	.	.	.	16qqc#X\JJ)	.	.	.	.	.	.
*	*	*	*	*	*	*rep	*	*	*	*
4.r	.	4.r	.	4.d#X^\)	.	16b'\LL	.	8bb\L	.	.
!	!	!	!	!	!	!LO:SIC:s=16b'	!	!	!	!
.	.	.	.	.	.	16b'\JJ	.	.	.	.
!	!	!	!	!	!	!LO:SIC:s=16b'	!	!	!	!
.	.	.	.	.	.	16b'\LL	.	8b\	.	.
!	!	!	!	!	!	!LO:SIC:s=16b'	!	!	!	!
.	.	.	.	.	.	16b'\JJ	.	.	.	.
!	!	!	!	!	!	!LO:SIC:s=16b'	!	!	!	!
.	.	.	.	.	.	16b'\LL	.	8aa\J)	.	.
.	.	.	.	.	.	16b'\JJ	.	.	.	.
*	*	*	*	*	*	*Xrep	*	*	*	*
!!LO:LB:g=original
=8	=8	=8	=8	=8	=8	=8	=8	=8	=8	=8
*	*	*	*	*	*	*rep	*	*	*	*
4.r	.	4.r	.	(16e\LL	.	16b'\LL	.	(8.gg\L	.	.
!	!	!	!	!	!	!LO:SIC:s=16b'	!	!	!	!
.	.	.	.	16d#X\)	.	16b'\JJ	.	.	.	.
!	!	!	!	!	!	!LO:SIC:s=16b'	!	!	!	!
.	.	.	.	16e'\	.	16b'\LL	.	.	.	.
!	!	!	!	!	!	!LO:SIC:s=16b'	!	!	!	!
.	.	.	.	16f#'\	.	16b'\JJ	.	16ff#\K	.	.
!	!	!	!	!	!	!LO:SIC:s=16b'	!	!	!	!
.	.	.	.	16g'\	.	16b'\LL	.	8ee\J)	.	.
.	.	.	.	16e'\JJ	.	16b'\JJ	.	.	.	.
*	*	*	*	*	*	*Xrep	*	*	*	*
*	*	*	*	*	*	*Xtremolo	*	*	*	*
=9	=9	=9	=9	=9	=9	=9	=9	=9	=9	=9
4.r	.	4.r	.	(8a\L	.	(8cc\L	.	16ee'\LL	.	.
.	.	.	.	.	.	.	.	16ee'\	.	.
.	.	.	.	8g\	.	8b\	.	16ee'\	.	.
.	.	.	.	.	.	.	.	16ee'\	.	.
.	.	.	.	8f#\J	.	8a\J	.	16ee'\	.	.
.	.	.	.	.	.	.	.	16ee'\JJ	.	.
=10	=10	=10	=10	=10	=10	=10	=10	=10	=10	=10
*	*	*	*	*	*	*	*	*tremolo	*	*
!	!	!	!LO:MO:null:mod=!LO&colon;DY&colon;ed=brack	!	!	!	!	!	!	!
!	!	!	!	!	!	!	!	!	!	!
!	!	!	!LO:MO:null:mod=pp	!	!	!	!	!	!	!
4.r	.	(8E\L	.	8.e\L	.	8.g/L	.	16ee'\LL	.	.
!	!	!	!	!	!	!	!	!LO:SIC:s=16ee'	!	!
.	.	.	.	.	.	.	.	16ee'\JJ	.	.
!	!	!	!	!	!	!	!	!LO:SIC:s=16ee'	!	!
.	.	8EE\J)	.	.	.	.	.	16ee'\LL	.	.
!	!	!	!	!	!	!	!	!LO:SIC:s=16ee'	!	!
.	.	.	.	16B\K	.	16f#/K	.	16ee'\JJ	.	.
!	!	!	!	!	!	!	!	!LO:SIC:s=16ee'	!	!
.	.	8r	.	8G\J)	.	8e/J)	.	16ee'\LL	.	.
.	.	.	.	.	.	.	.	16ee'\JJ	.	.
=11	=11	=11	=11	=11	=11	=11	=11	=11	=11	=11
*	*	*	*	*	*	*	*	*rep	*	*
!LO:TX:t=P:problem==poprawka kompozytora	!	!	!	!	!	!	!	!	!	!
4.r	.	(8A\L	.	(8c/L	.	16e'/LL	.	16ee'\LL	.	.
!	!	!	!	!	!	!	!	!LO:SIC:s=16ee'	!	!
.	.	.	.	.	.	16e'/	.	16ee'\JJ	.	.
!	!	!	!	!	!	!	!	!LO:SIC:s=16ee'	!	!
.	.	8G\	.	8B/	.	16e'/	.	16ee'\LL	.	.
!	!	!	!	!	!	!	!	!LO:SIC:s=16ee'	!	!
.	.	.	.	.	.	16e'/	.	16ee'\JJ	.	.
!	!	!	!	!	!	!	!	!LO:SIC:s=16ee'	!	!
.	.	8F#\J	.	8A/J	.	16e'/	.	16ee'\LL	.	.
.	.	.	.	.	.	16e'/JJ	.	16ee'\JJ	.	.
*	*	*	*	*	*	*	*	*Xrep	*	*
=12	=12	=12	=12	=12	=12	=12	=12	=12	=12	=12
*	*	*	*	*	*	*rep	*	*rep	*	*
!	!	!	!	!	!	!LO:MO:null:mod=*tremolo	!	!	!	!
*	*	*	*	*	*	*	*	*	*	*
!LO:TX:t=P:problem==poprawka kompozytora	!	!	!	!	!	!	!	!	!	!
4.r	.	8.E\L	.	8.G/L	.	16e'/LL	.	16ee'\LL	.	.
!	!	!	!	!	!	!	!	!LO:SIC:s=16ee'	!	!
.	.	.	.	.	.	16e'/	.	16ee'\JJ	.	.
!	!	!	!	!	!	!	!	!LO:SIC:s=16ee'	!	!
.	.	.	.	.	.	16e'/	.	16ee'\LL	.	.
!	!	!	!	!	!	!	!	!LO:SIC:s=16ee'	!	!
.	.	16BB\K	.	16F#/K	.	16e'/	.	16ee'\JJ	.	.
!	!	!	!	!	!	!	!	!LO:SIC:s=16ee'	!	!
.	.	8GG\J)	.	8E/J)	.	16e'/	.	16ee'\LL	.	.
.	.	.	.	.	.	16e'/JJ	.	16ee'\JJ	.	.
*	*	*	*	*	*	*Xrep	*	*Xrep	*	*
!	!	!	!	!	!	!LO:MO:null:mod=*Xtremolo	!	!	!	!
*	*	*	*	*	*	*	*	*Xtremolo	*	*
=13	=13	=13	=13	=13	=13	=13	=13	=13	=13	=13
!	!LO:MO:null:mod=!LO&colon;DY&colon;ed=brack	!	!	!	!	!	!	!	!	!
!	!	!	!	!	!	!	!	!	!	!
!	!LO:MO:null:mod=pp	!	!	!	!	!	!	!	!	!
8BB\	.	4.BB/	.	16F#'/LL	.	4.d#X/	.	8dd#X/L	.	.
.	.	.	.	16F#'/	.	.	.	.	.	.
4r	.	.	.	16F#'/	.	.	.	8f#'/	.	.
.	.	.	.	16F#'/	.	.	.	.	.	.
.	.	.	.	16F#'/	.	.	.	8b^>/J	.	.
.	.	.	.	16F#'/JJ	.	.	.	.	.	.
=14	=14	=14	=14	=14	=14	=14	=14	=14	=14	=14
8E\	.	(4.E\	.	4.G/	.	(16e/LL	.	(16g/LL	.	.
.	.	.	.	.	.	16B/)	.	16f#/)	.	.
4r	.	.	.	.	.	16B'/	.	16e'/	.	.
.	.	.	.	.	.	16B'/	.	16f#'/	.	.
.	.	.	.	.	.	16B'/	.	16g'/	.	.
.	.	.	.	.	.	16B'/JJ	.	16e'/JJ	.	.
=15	=15	=15	=15	=15	=15	=15	=15	=15	=15	=15
8D\	.	4.D\	.	16F#'/LL	.	(8d/L	.	8r	.	.
.	.	.	.	16F#'/	.	.	.	.	.	.
4r	.	.	.	16G'/	.	8e/	.	8a'/L	.	.
.	.	.	.	16G'/	.	.	.	.	.	.
.	.	.	.	16A'/	.	8f#/J)	.	((8dd^>/J	.	.
.	.	.	.	16A'/JJ	.	.	.	.	.	.
=16	=16	=16	=16	=16	=16	=16	=16	=16	=16	=16
8GG\	.	4.GG\)	.	(8.B/L	.	(16g/LL	.	16b/LL)	.	.
.	.	.	.	.	.	16d/)	.	16a'/)	.	.
4r	.	.	.	.	.	16B'/	.	16g'/	.	.
.	.	.	.	16E/K	.	16B'/	.	16a'/	.	.
.	.	.	.	8E#X/J)	.	16B'/	.	16b'/	.	.
.	.	.	.	.	.	16B'/JJ	.	16g'/JJ	.	.
!!LO:LB:g=original
=17	=17	=17	=17	=17	=17	=17	=17	=17	=17	=17
8FF#\	.	[<4.FF#\	.	16F#'/LL	.	(8B/L	.	16d#X'/LL	.	.
.	.	.	.	16F#'/	.	.	.	16g'/	.	.
4r	.	.	.	16F#'/	.	8d#X/	.	16f#'/	.	.
.	.	.	.	16F#'/	.	.	.	16b'/	.	.
.	.	.	.	16F#'/	.	8b/J)	.	16dd#X'/	.	.
.	.	.	.	16F#'/JJ	.	.	.	16gg'/JJ	.	.
=18	=18	=18	=18	=18	=18	=18	=18	=18	=18	=18
4.r	.	4.FF#\_<	.	(16F#/LL	.	(16d#X/LL	.	16ff#'/LL	.	.
.	.	.	.	16G/	.	16e/	.	16ff#'/	.	.
.	.	.	.	16F#/	.	16d#/	.	16ff#'/	.	.
.	.	.	.	16G/J)	.	16e/	.	16ff#'/	.	.
.	.	.	.	8F#/J	.	16d#/	.	16ff#'/	.	.
.	.	.	.	.	.	16f#/JJ)	.	16ff#'/JJ	.	.
=19	=19	=19	=19	=19	=19	=19	=19	=19	=19	=19
8F#\	.	4.FF#\]	.	16F#'/LL	.	(8e/L	.	(16ff#\LL	.	.
.	.	.	.	16F#'/	.	.	.	16ccc#X\	.	.
4r	.	.	.	16F#'/	.	8g/	.	16bb\	.	.
.	.	.	.	16F#'/	.	.	.	16ccc#\	.	.
.	.	.	.	16F#'/	.	8cc#X/J)	.	16eee\	1	.
.	.	.	.	16F#'/JJ	.	.	.	16ggg\JJ	3	.
=20	=20	=20	=20	=20	=20	=20	=20	=20	=20	=20
4.r	.	16FF#'\LL	.	(16f#\LL	.	(16dd#X\LL	.	4.aaa#X\)	4	.
.	.	16FF#'\	.	16g\	.	16ee\	.	.	.	.
.	.	16FF#'\	.	16f#\	.	16dd#\	.	.	.	.
.	.	16FF#'\	.	16g\	.	16ee\	.	.	.	.
.	.	16FF#'\	.	16f#\	.	16dd#\	.	.	.	.
.	.	16FF#'\JJ	.	16g\JJ)	.	16ee\JJ)	.	.	.	.
=21	=21	=21	=21	=21	=21	=21	=21	=21	=21	=21
*	*	*	*	*	*	*	*	*tremolo	*	*
8BB\	.	[4.BB\	.	(4f#\	.	(4dd#X\	.	16bbb'\LL	.	.
!	!	!	!	!	!	!	!	!LO:SIC:s=16bbb'	!	!
.	.	.	.	.	.	.	.	16bbb'\JJ	.	.
!	!	!	!	!	!	!	!	!LO:SIC:s=16bbb'	!	!
4r	.	.	.	.	.	.	.	16bbb'\LL	.	.
!	!	!	!	!	!	!	!	!LO:SIC:s=16bbb'	!	!
.	.	.	.	.	.	.	.	16bbb'\JJ	.	.
!	!	!	!	!	!	!	!	!LO:SIC:s=16bbb'	!	!
.	.	.	.	8g\	.	8ee\	.	16bbb'\LL	.	.
.	.	.	.	.	.	.	.	16bbb'\JJ	.	.
=22	=22	=22	=22	=22	=22	=22	=22	=22	=22	=22
4.r	.	4BB\]	.	4f#\)	.	4dd#X\)	.	16bb'\LL	.	.
!	!	!	!	!	!	!	!	!LO:SIC:s=16bb'	!	!
.	.	.	.	.	.	.	.	16bb'\JJ	.	.
!	!	!	!	!	!	!	!	!LO:SIC:s=16bb'	!	!
.	.	.	.	.	.	.	.	16bb'\LL	.	.
!	!	!	!	!	!	!	!	!LO:SIC:s=16bb'	!	!
.	.	.	.	.	.	.	.	16bb'\JJ	.	.
!	!	!	!	!	!	!	!	!LO:SIC:s=16bb'	!	!
.	.	8r	.	8r	.	8r	.	16bb'\LL	.	.
.	.	.	.	.	.	.	.	16bb'\JJ	.	.
!	!	!	!	!	!	!	!	!LO:MO:mod=*null:null	!	!
*	*	*	*	*	*	*	*	*Xtremolo	*	*
=23	=23	=23	=23	=23	=23	=23	=23	=23	=23	=23
8BB/	.	[4.BB\	.	(4F#/	.	(4d#X/	.	16b'\LL	.	.
.	.	.	.	.	.	.	.	16b'\	.	.
4r	.	.	.	.	.	.	.	16b'\	.	.
.	.	.	.	.	.	.	.	16b'\	.	.
.	.	.	.	8G/	.	8e/	.	16b'\	.	.
.	.	.	.	.	.	.	.	16b'\JJ	.	.
=24	=24	=24	=24	=24	=24	=24	=24	=24	=24	=24
*	*	*	*	*	*	*	*	*rep	*	*
4.r	.	4BB\]	.	4F#/)	.	4d#X/)	.	16b'\LL	.	.
.	.	.	.	.	.	.	.	16b'\	.	.
.	.	.	.	.	.	.	.	16b'\	.	.
.	.	.	.	.	.	.	.	16b'\	.	.
.	.	8r	.	8r	.	8r	.	16b'\	.	.
.	.	.	.	.	.	.	.	16b'\JJ	.	.
*	*	*	*	*	*	*	*	*Xrep	*	*
!	!	!	!	!	!	!	!	!LO:MO:null:mod=*Xtremolo	!	!
*	*	*	*	*	*	*	*	*	*	*
=25:|!	=25:|!	=25:|!	=25:|!	=25:|!	=25:|!	=25:|!	=25:|!	=25:|!	=25:|!	=25:|!
*>B	*>B	*>B	*>B	*>B	*>B	*>B	*>B	*>B	*	*>B
4.r	.	4.r	.	16B'/LL	.	4.r	.	4.r	.	.
.	.	.	.	16B'/	.	.	.	.	.	.
.	.	.	.	16B'/	.	.	.	.	.	.
.	.	.	.	16B'/	.	.	.	.	.	.
.	.	.	.	16B'/	.	.	.	.	.	.
.	.	.	.	16B'/JJ	.	.	.	.	.	.
!!LO:PB:g=original
=26	=26	=26	=26	=26	=26	=26	=26	=26	=26	=26
4.r	.	4.r	.	16c#X'\LL	.	4.r	.	4.r	.	.
.	.	.	.	16c#'\	.	.	.	.	.	.
.	.	.	.	16c#'\	.	.	.	.	.	.
.	.	.	.	16c#'\	.	.	.	.	.	.
.	.	.	.	16c#'\	.	.	.	.	.	.
.	.	.	.	16c#'\JJ	.	.	.	.	.	.
=27	=27	=27	=27	=27	=27	=27	=27	=27	=27	=27
.	.	.	.	.	.	.	.	(16qqbb/LL	.	.
.	.	.	.	.	.	.	.	16qqccc#X/JJ	.	.
*	*	*	*	*	*	*tremolo	*	*	*	*
4.r	.	4.r	.	16d'\LL	.	16d'/LL	.	4.ddd\)	.	.
!	!	!	!	!	!	!LO:SIC:s=16d'	!	!	!	!
.	.	.	.	16d'\	.	16d'/JJ	.	.	.	.
!	!	!	!	!	!	!LO:SIC:s=16d'	!	!	!	!
.	.	.	.	16d'\	.	16d'/LL	.	.	.	.
!	!	!	!	!	!	!LO:SIC:s=16d'	!	!	!	!
.	.	.	.	16d'\	.	16d'/JJ	.	.	.	.
!	!	!	!	!	!	!LO:SIC:s=16d'	!	!	!	!
.	.	.	.	16d'\	.	16d'/LL	.	.	.	.
.	.	.	.	16d'\JJ	.	16d'/JJ	.	.	.	.
=28	=28	=28	=28	=28	=28	=28	=28	=28	=28	=28
.	.	.	.	.	.	.	.	(16qqbb/LL	.	.
!	!	!LO:TX:a:t=piz.:mod=pizz.	!	!LO:MO:null:mod=*tremolo	!	!	!	!	!	!
*	*	*	*	*	*	*	*	*	*	*
.	.	.	.	.	.	.	.	16qqccc#X/JJ	.	.
*	*	*	*	*rep	*	*rep	*	*	*	*
4.r	.	8D\	.	16d'\LL	.	16d'/LL	.	4.ddd\)	.	.
!	!	!	!	!	!	!LO:SIC:s=16d'	!	!	!	!
.	.	.	.	16d'\	.	16d'/JJ	.	.	.	.
!	!	!	!	!	!	!LO:SIC:s=16d'	!	!	!	!
.	.	4r	.	16d'\	.	16d'/LL	.	.	.	.
!	!	!	!	!	!	!LO:SIC:s=16d'	!	!	!	!
.	.	.	.	16d'\	.	16d'/JJ	.	.	.	.
!	!	!	!	!	!	!LO:SIC:s=16d'	!	!	!	!
.	.	.	.	16d'\	.	16d'/LL	.	.	.	.
.	.	.	.	16d'\JJ	.	16d'/JJ	.	.	.	.
*	*	*	*	*Xrep	*	*Xrep	*	*	*	*
!	!	!	!	!	!	!LO:MO:mod=*null:null	!	!	!	!
*	*	*	*	*	*	*Xtremolo	*	*	*	*
=29	=29	=29	=29	=29	=29	=29	=29	=29	=29	=29
*	*	*	*	*rep	*	*	*	*	*	*
4.r	.	8DD\	.	16d'\LL	.	16e'/LL	.	(16ccc#X\LL	.	.
.	.	.	.	16d'\	.	16e'/	.	16bb\)	.	.
.	.	4r	.	16d'\	.	16e'/	.	16aa'\	.	.
.	.	.	.	16d'\	.	16e'/	.	16bb'\	.	.
.	.	.	.	16d'\	.	16e'/	.	16ccc#'\	.	.
.	.	.	.	16d'\JJ	.	16e'/JJ	.	16aa'\JJ	.	.
!	!	!	!	!	!	!LO:MO:null:mod=*Xtremolo	!	!	!	!
*	*	*	*	*Xrep	*	*	*	*	*	*
=30	=30	=30	=30	=30	=30	=30	=30	=30	=30	=30
.	.	.	.	.	.	(16qqf#/LL	.	.	.	.
.	.	.	.	.	.	16qqg/JJ	.	.	.	.
*	*	*	*	*rep	*	*	*	*	*	*
4.r	.	8r	.	16d'\LL	.	4.a/)	.	4.cccn\	.	.
.	.	.	.	16d'\	.	.	.	.	.	.
!	!	!LO:TX:a:t=piz.:mod=	!	!	!	!	!	!	!	!
.	.	8d\	.	16d'\	.	.	.	.	.	.
.	.	.	.	16d'\	.	.	.	.	.	.
.	.	8A'\	.	16d'\	.	.	.	.	.	.
.	.	.	.	16d'\JJ	.	.	.	.	.	.
*	*	*	*	*Xrep	*	*	*	*	*	*
=31	=31	=31	=31	=31	=31	=31	=31	=31	=31	=31
.	.	.	.	.	.	.	.	((16qqaa/LL	.	.
.	.	.	.	.	.	.	.	16qqbb/JJ	.	.
*	*	*	*	*rep	*	*	*	*	*	*
4.r	.	8D'\	.	16d'\LL	.	16d'/LL	.	4.ccc\))	.	.
.	.	.	.	16d'\	.	16d'/	.	.	.	.
.	.	8AA\	.	16d'\	.	16e'/	.	.	.	.
.	.	.	.	16d'\	.	16e'/	.	.	.	.
.	.	8DD\	.	16d'\	.	16f#'/	.	.	.	.
.	.	.	.	16d'\JJ	.	16f#'/JJ	.	.	.	.
*	*	*	*	*Xrep	*	*	*	*	*	*
=32	=32	=32	=32	=32	=32	=32	=32	=32	=32	=32
*	*	*	*	*rep	*	*	*	*	*	*
!LO:TX:a:t=piz.:mod=pizz.	!	!	!	!	!	!	!	!	!	!
8GG/	.	8GG/	.	16d'\LL	.	16g'/LL	.	(16bb\LL	.	.
.	.	.	.	16d'\	.	16a'/	.	16aa\)	.	.
4r	.	4r	.	16d'\	.	16b'/	.	16gg'\	.	.
.	.	.	.	16d'\	.	16a'/	.	16aa'\	.	.
.	.	.	.	16d'\	.	16g'/	.	16bb'\	.	.
.	.	.	.	16d'\JJ	.	16a'/JJ	.	16dd'\JJ	.	.
*	*	*	*	*Xrep	*	*	*	*	*	*
!	!	!	!	!LO:MO:null:mod=*Xtremolo	!	!	!	!	!	!
*	*	*	*	*	*	*	*	*	*	*
=33	=33	=33	=33	=33	=33	=33	=33	=33	=33	=33
*	*	*	*	*	*	*tremolo	*	*tremolo	*	*
4.r	.	8r	.	8r	.	16g'/LL	.	16gg'\LL	.	.
!	!	!	!	!	!	!LO:SIC:s=16g'	!	!LO:SIC:s=16gg'	!	!
.	.	.	.	.	.	16g'/JJ	.	16gg'\JJ	.	.
!	!	!LO:MO:null:mod=!LO&colon;TX&colon;a&colon;t=[arco]	!	!	!	!	!	!	!	!
!	!	!	!	!	!	!LO:SIC:s=16g'	!	!LO:SIC:s=16gg'	!	!
.	.	(4BB\	.	(8d\L	.	16g'/LL	.	16gg'\LL	.	.
!	!	!	!	!	!	!LO:SIC:s=16g'	!	!LO:SIC:s=16gg'	!	!
.	.	.	.	.	.	16g'/JJ	.	16gg'\JJ	.	.
!	!	!	!	!	!	!LO:SIC:s=16g'	!	!LO:SIC:s=16gg'	!	!
.	.	.	.	8d#X\J)	.	16g'/LL	.	16gg'\LL	.	.
.	.	.	.	.	.	16g'/JJ	.	16gg'\JJ	.	.
!!LO:LB:g=original
=34	=34	=34	=34	=34	=34	=34	=34	=34	=34	=34
*	*	*	*	*	*	*rep	*	*rep	*	*
!	!	!	!	!LO:TX:t=P:problem=mixed beam	!	!	!	!	!	!
4.r	.	8C\L)	.	(8e\L	.	16g'/LL	.	16gg'\LL	.	.
!	!	!	!	!	!	!LO:SIC:s=16g'	!	!LO:SIC:s=16gg'	!	!
.	.	.	.	.	.	16g'/JJ	.	16gg'\JJ	.	.
!	!	!	!	!	!	!LO:SIC:s=16g'	!	!LO:SIC:s=16gg'	!	!
.	.	8E\	.	8G/	.	16g'/LL	.	16gg'\LL	.	.
!	!	!	!	!	!	!LO:SIC:s=16g'	!	!LO:SIC:s=16gg'	!	!
.	.	.	.	.	.	16g'/JJ	.	16gg'\JJ	.	.
!	!	!	!	!	!	!LO:SIC:s=16g'	!	!LO:SIC:s=16gg'	!	!
.	.	8E-X\J	.	8A/J)	.	16g'/LL	.	16gg'\LL	.	.
.	.	.	.	.	.	16g'/JJ	.	16gg'\JJ	.	.
*	*	*	*	*	*	*Xrep	*	*Xrep	*	*
*	*	*	*	*	*	*Xtremolo	*	*Xtremolo	*	*
=35	=35	=35	=35	=35	=35	=35	=35	=35	=35	=35
8r	.	4D\	.	4B/	.	16g'/LL	.	16gg'\LL	.	.
.	.	.	.	.	.	16g'/	.	16gg'\	.	.
8D\	.	.	.	.	.	16g'/	.	16gg'\	.	.
!	!	!	!	!	!	!	!	!LO:SIC:s=16gg'	!	!
.	.	.	.	.	.	16g'/	.	16gg'\JJ	.	.
!	!	!	!	!	!	!	!	!LO:SIC:s=16gg#	!	!
8r	.	8D\	.	8B/	.	16g#X'/	.	16gg#X'\LL	.	.
.	.	.	.	.	.	16g#'/JJ	.	16gg#'\JJ	.	.
=36	=36	=36	=36	=36	=36	=36	=36	=36	=36	=36
8r	.	4D\	.	4c/	.	16a'/LL	.	16aa'\LL	.	.
.	.	.	.	.	.	16a'/	.	16aa'\	.	.
8D\	.	.	.	.	.	16a'/	.	16aa'\	.	.
!	!	!	!	!	!	!	!	!LO:SIC:s=16aa'	!	!
.	.	.	.	.	.	16a'/	.	16aa'\JJ	.	.
!	!	!	!	!	!	!	!	!LO:SIC:s=16aa#'	!	!
8r	.	8D\	.	8c#X/	.	16a#X'/	.	16aa#X'\LL	.	.
.	.	.	.	.	.	16a#'/JJ	.	16aa#'\JJ	.	.
=37	=37	=37	=37	=37	=37	=37	=37	=37	=37	=37
*	*	*	*	*	*	*tremolo	*	*tremolo	*	*
8r	.	([4.D\	.	[4.d\	.	16b/LL	.	16bb'\LL	.	.
!	!	!	!	!	!	!LO:SIC:s=16b'	!	!LO:SIC:s=16bb'	!	!
.	.	.	.	.	.	16b/JJ	.	16bb'\JJ	.	.
!	!	!	!	!	!	!LO:SIC:s=16b'	!	!LO:SIC:s=16bb'	!	!
8GG\	.	.	.	.	.	16b/LL	.	16bb'\LL	.	.
!	!	!	!	!	!	!LO:SIC:s=16b'	!	!LO:SIC:s=16bb'	!	!
.	.	.	.	.	.	16b/JJ	.	16bb'\JJ	.	.
!	!	!	!	!	!	!LO:SIC:s=16b'	!	!LO:SIC:s=16bb'	!	!
8G\	.	.	.	.	.	16b/LL	.	16bb'\LL	.	.
.	.	.	.	.	.	16b/JJ	.	16bb'\JJ	.	.
=38	=38	=38	=38	=38	=38	=38	=38	=38	=38	=38
!	!	!	!	!	!	!LO:SIC:s=16b'LL	!	!LO:SIC:s=16bb'LL	!	!
8GG\	.	4D\]	.	4.d\]	.	16b/LL	.	16bb\LL	.	.
!	!	!	!	!	!	!LO:SIC:s=16b'	!	!LO:SIC:s=16bb'	!	!
.	.	.	.	.	.	16b/JJ	.	16bb\JJ	.	.
!	!	!	!	!	!	!LO:SIC:s=16b'	!	!LO:SIC:s=16bb'	!	!
8G\	.	.	.	.	.	16b/LL	.	16bb\LL	.	.
!	!	!	!	!	!	!LO:SIC:s=16b'JJ	!	!LO:SIC:s=16bb'JJ	!	!
.	.	.	.	.	.	16b/JJ	.	16bb\JJ	.	.
!	!	!	!	!	!	!LO:SIC:s=16dd'LL	!	!LO:SIC:s=16ddd'LL	!	!
8r	.	8C\)	.	.	.	16dd/LL	.	16ddd\LL	.	.
.	.	.	.	.	.	16dd/JJ	.	16ddd\JJ	.	.
*	*	*	*	*	*	*Xtremolo	*	*Xtremolo	*	*
=39	=39	=39	=39	=39	=39	=39	=39	=39	=39	=39
4.r	.	16BB'\LL	.	16d'\LL	.	(8gg\L	.	(8ggg\L	.	.
.	.	16BB'\	.	16d'\	.	.	.	.	.	.
.	.	16BB'\	.	16g'\	.	8dd\	.	8ddd\	.	.
.	.	16BB'\	.	16g'\	.	.	.	.	.	.
.	.	16BB'\	.	16g'\	.	8dd#X\J	.	8ddd#X\J	.	.
.	.	16BB'\JJ	.	16g'\JJ	.	.	.	.	.	.
=40	=40	=40	=40	=40	=40	=40	=40	=40	=40	=40
!	!	!	!	!	!	!LO:TX:t=P:problem=mixed beam	!	!	!	!
4.r	.	16C\LL	.	16g'\LL	.	8ee\L	.	8eee\L	.	.
.	.	16C\	.	16g'\	.	.	.	.	.	.
.	.	16E\	.	16c'\	.	8g/	.	8bb\	.	.
.	.	16E\	.	16c'\	.	.	.	.	.	.
.	.	16E-X\	.	16c'\	.	8a/J)	.	8aa\J)	.	.
.	.	16E-\JJ	.	16c'\JJ	.	.	.	.	.	.
=41	=41	=41	=41	=41	=41	=41	=41	=41	=41	=41
4.r	.	16D'\LL	.	16B'\LL	.	(>8b/L	.	(>8bb\L	.	.
.	.	16D'\	.	16B'\	.	.	.	.	.	.
.	.	16D#X'\	.	16B'\	.	8a/	.	8aa\	.	.
.	.	16D#'\	.	16B'\	.	.	.	.	.	.
.	.	16E'\	.	16B'\	.	8g/J)	.	8gg\J)	.	.
.	.	16E'\JJ	.	16B'\JJ	.	.	.	.	.	.
!!LO:LB:g=original
=42	=42	=42	=42	=42	=42	=42	=42	=42	=42	=42
4.r	.	16F#'\LL	.	16d#X'\LL	.	(4.f#/	.	(8ff#\L	.	.
.	.	16F#'\	.	16d#'\	.	.	.	.	.	.
.	.	16F#'\	.	16B'\	.	.	.	8dd#X\	.	.
.	.	16F#'\	.	16B'\	.	.	.	.	.	.
.	.	16F#'\	.	16d#'\	.	.	.	8b\J)	.	.
.	.	16F#'\JJ	.	16d#'\JJ	.	.	.	.	.	.
=43	=43	=43	=43	=43	=43	=43	=43	=43	=43	=43
*	*	*rep	*	*	*	*	*	*	*	*
8F#\	.	16F#'\LL	.	(4.e\	.	8g#X/L	.	(4dd#X\	.	.
.	.	16F#'\	.	.	.	.	.	.	.	.
4r	.	16F#'\	.	.	.	8g##X/	.	.	.	.
.	.	16F#'\	.	.	.	.	.	.	.	.
.	.	16F#'\	.	.	.	8a#X/J	.	8cc#X\	.	.
.	.	16F#'\JJ	.	.	.	.	.	.	.	.
*	*	*Xrep	*	*	*	*	*	*	*	*
=44	=44	=44	=44	=44	=44	=44	=44	=44	=44	=44
8BB\	.	8B\	.	16d#X\)	.	8b/)	.	8b\)	.	.
.	.	.	.	16f#'\LL	.	.	.	.	.	.
4r	.	4r	.	16f#'\	.	4r	.	4r	.	.
.	.	.	.	16f#'\	.	.	.	.	.	.
.	.	.	.	16f#'\	.	.	.	.	.	.
.	.	.	.	16f#'\JJ	.	.	.	.	.	.
=45	=45	=45	=45	=45	=45	=45	=45	=45	=45	=45
*	*	*	*	*rep	*	*	*	*	*	*
4.r	.	4.r	.	16d#X\	.	4.r	.	4.r	.	.
.	.	.	.	16f#'\LL	.	.	.	.	.	.
.	.	.	.	16f#'\	.	.	.	.	.	.
.	.	.	.	16f#'\	.	.	.	.	.	.
.	.	.	.	16f#'\	.	.	.	.	.	.
.	.	.	.	16f#'\JJ	.	.	.	.	.	.
*	*	*	*	*Xrep	*	*	*	*	*	*
=46	=46	=46	=46	=46	=46	=46	=46	=46	=46	=46
.	.	.	.	.	.	.	.	(>16qqddd#X\LL	.	.
.	.	.	.	.	.	.	.	16qqeee\JJ	.	.
*	*	*	*	*rep	*	*	*	*	*	*
4.r	.	4.r	.	16d#X\	.	16f#'/LL	.	4.fff#^\)	.	.
.	.	.	.	16f#'\LL	.	16f#'/	.	.	.	.
.	.	.	.	16f#'\	.	16f#'/	.	.	.	.
.	.	.	.	16f#'\	.	16f#'/	.	.	.	.
.	.	.	.	16f#'\	.	16f#'/	.	.	.	.
.	.	.	.	16f#'\JJ	.	16f#'/JJ	.	.	.	.
*	*	*	*	*Xrep	*	*	*	*	*	*
=47	=47	=47	=47	=47	=47	=47	=47	=47	=47	=47
.	.	.	.	.	.	.	.	(>16qqddd#X\LL	.	.
!	!	!LO:TX:a:t=piz:mod=pizz.	!	!	!	!LO:MO:null:mod=*tremolo	!	!	!	!
*	*	*	*	*	*	*	*	*	*	*
.	.	.	.	.	.	.	.	16qqeee\JJ	.	.
*	*	*	*	*rep	*	*rep	*	*	*	*
4.r	.	8F#\	.	16d#X\	.	16f#'/LL	.	4.fff#^\)	.	.
.	.	.	.	16f#'\LL	.	16f#'/	.	.	.	.
.	.	4r	.	16f#'\	.	16f#'/	.	.	.	.
.	.	.	.	16f#'\	.	16f#'/	.	.	.	.
.	.	.	.	16f#'\	.	16f#'/	.	.	.	.
.	.	.	.	16f#'\JJ	.	16f#'/JJ	.	.	.	.
*	*	*	*	*Xrep	*	*Xrep	*	*	*	*
=48	=48	=48	=48	=48	=48	=48	=48	=48	=48	=48
*	*	*	*	*rep	*	*	*	*	*	*
!	!	!LO:TX:a:t=piz:mod=	!	!	!	!	!	!	!	!
4.r	.	8FF#\	.	16d#X\	.	16g#X'/LL	.	(16eee#X\LL	.	.
.	.	.	.	16f#'\LL	.	16g#'/	.	16ddd#X\)	.	.
.	.	4r	.	16f#'\	.	16g#'/	.	16ccc#X'\	.	.
.	.	.	.	16f#'\	.	16g#'/	.	16ddd#'\	.	.
.	.	.	.	16f#'\	.	16g#'/	.	16eee#'\	.	.
.	.	.	.	16f#'\JJ	.	16g#'/JJ	.	16ccc#'\JJ	.	.
!	!	!	!	!	!	!LO:MO:null:mod=*Xtremolo	!	!	!	!
*	*	*	*	*Xrep	*	*	*	*	*	*
=49	=49	=49	=49	=49	=49	=49	=49	=49	=49	=49
.	.	.	.	.	.	(16qqa#X/LL	.	.	.	.
.	.	.	.	.	.	16qqb/JJ	.	.	.	.
*	*	*	*	*rep	*	*	*	*	*	*
4.r	.	8r	.	16d#X\	.	4.cc#X^>/)	.	4.eeen\	.	.
.	.	.	.	16f#'\LL	.	.	.	.	.	.
!	!	!LO:TX:b:t=piz:mod=	!	!	!	!	!	!	!	!
.	.	8f#\	.	16f#'\	.	.	.	.	.	.
.	.	.	.	16f#'\	.	.	.	.	.	.
.	.	8c#X\	.	16f#'\	.	.	.	.	.	.
.	.	.	.	16f#'\JJ	.	.	.	.	.	.
*	*	*	*	*Xrep	*	*	*	*	*	*
!!LO:PB:g=original
=50	=50	=50	=50	=50	=50	=50	=50	=50	=50	=50
.	.	.	.	.	.	.	.	(>16qqccc#X\LL	.	.
!	!	!LO:TX:a:t=piz:mod=	!	!LO:MO:null:mod=*tremolo	!	!	!	!	!	!
*	*	*	*	*	*	*	*	*	*	*
.	.	.	.	.	.	.	.	16qqddd#X\JJ	.	.
4.r	.	8F#\	.	16f#\LL	.	16f#'/LL	.	4.eee^\)	.	.
.	.	.	.	16f#\	.	16f#'/	.	.	.	.
.	.	8C#X\	.	16f#\	.	16g#X'/	.	.	.	.
.	.	.	.	16f#\	.	16g#'/	.	.	.	.
.	.	8FF#\	.	16f#\	.	16a#X'/	.	.	.	.
.	.	.	.	16f#\JJ	.	16a#'/JJ	.	.	.	.
=51	=51	=51	=51	=51	=51	=51	=51	=51	=51	=51
*	*	*	*	*rep	*	*	*	*	*	*
!LO:TX:a:t=piz:mod=	!	!	!	!	!	!	!	!	!	!
8BB\	.	8BB/	.	16f#\LL	.	(16b/LL	.	(16ddd#X\LL	.	.
.	.	.	.	16f#\	.	16cc#X/)	.	16ccc#X\)	.	.
4r	.	4r	.	16f#\	.	16dd#X'/	.	16bb'\	.	.
.	.	.	.	16f#\	.	16cc#'/	.	16ccc#'\	.	.
.	.	.	.	16f#\	.	16b'/	.	16ddd#'\	.	.
.	.	.	.	16f#\JJ	.	16cc#'/JJ	.	16ff#'\JJ	.	.
*	*	*	*	*Xrep	*	*	*	*	*	*
!	!	!	!	!LO:MO:null:mod=*Xtremolo	!	!	!	!	!	!
*	*	*	*	*	*	*	*	*	*	*
=52	=52	=52	=52	=52	=52	=52	=52	=52	=52	=52
!	!	!	!	!	!	!LO:MO:null:mod=*tremolo	!	!LO:MO:null:mod=*tremolo	!	!
*	*	*	*	*	*	*	*	*	*	*
4.r	.	8r	.	8r	.	16b'/LL	.	16bb'\LL	.	.
.	.	.	.	.	.	16b'/	.	16bb'\	.	.
!	!	!LO:MO:null:mod=!LO&colon;TX&colon;a&colon;t=[arco]	!	!	!	!	!	!	!	!
!	!	!	!	!	!	!	!	!	!	!
.	.	(4D#X\	.	(8f#\L	.	16b'/	.	16bb'\	.	.
.	.	.	.	.	.	16b'/	.	16bb'\	.	.
.	.	.	.	8f##X\J	.	16b'/	.	16bb'\	.	.
.	.	.	.	.	.	16b'/JJ	.	16bb'\JJ	.	.
=53	=53	=53	=53	=53	=53	=53	=53	=53	=53	=53
*	*	*	*	*	*	*rep	*	*rep	*	*
4.r	.	8E\L	.	8g#X\L	.	16b'/LL	.	16bb'\LL	.	.
.	.	.	.	.	.	16b'/	.	16bb'\	.	.
.	.	8G#X\	.	8B\	.	16b'/	.	16bb'\	.	.
.	.	.	.	.	.	16b'/	.	16bb'\	.	.
.	.	8Gn\J)	.	8c#X\J)	.	16b'/	.	16bb'\	.	.
.	.	.	.	.	.	16b'/JJ	.	16bb'\JJ	.	.
*	*	*	*	*	*	*Xrep	*	*Xrep	*	*
=54	=54	=54	=54	=54	=54	=54	=54	=54	=54	=54
8r	.	(4F#\	.	(4d#X\	.	16b/LL	.	16bb'\LL	.	.
.	.	.	.	.	.	16b/	.	16bb'\	.	.
!LO:TX:a:t=piz:mod=	!	!	!	!	!	!	!	!	!	!
8FF#\	.	.	.	.	.	16b/	.	16bb'\	.	.
!	!	!	!	!	!	!LO:SIC:s=16bJJ	!	!	!	!
.	.	.	.	.	.	16b/	.	16bb'\JJ	.	.
!	!	!	!	!	!	!LO:SIC:s=16b#LL	!	!	!	!
8r	.	8F#\)	.	8d#\)	.	16b#X/	.	16bb#X'\LL	.	.
.	.	.	.	.	.	16b#/JJ	.	16bb#'\JJ	.	.
=55	=55	=55	=55	=55	=55	=55	=55	=55	=55	=55
8r	.	(4F#\	.	(4e\	.	16cc#X\LL	.	16ccc#X\LL	.	.
.	.	.	.	.	.	16cc#\	.	16ccc#\	.	.
!LO:TX:a:t=piz:mod=	!	!	!	!	!	!	!	!	!	!
8F#\	.	.	.	.	.	16cc#\	.	16ccc#\	.	.
!	!	!	!	!	!	!LO:SIC:s=16cc#JJ	!	!LO:SIC:s=16ccc#JJ	!	!
.	.	.	.	.	.	16cc#\	.	16ccc#\	.	.
!	!	!	!	!	!	!LO:SIC:s=16cc##LL	!	!LO:SIC:s=16ccc##LL	!	!
8r	.	8F#\)	.	8e#X\)	.	16cc##X\	.	16ccc##X\	.	.
.	.	.	.	.	.	16cc##\JJ	.	16ccc##\JJ	.	.
=56	=56	=56	=56	=56	=56	=56	=56	=56	=56	=56
8r	.	4.F#\	.	[4.f#\	.	16dd#X'\LL	.	16ddd#X'\LL	.	.
.	.	.	.	.	.	16dd#'\	.	16ddd#'\	.	.
!LO:TX:a:t=piz:mod=	!	!	!	!	!	!	!	!	!	!
8BB\	.	.	.	.	.	16dd#'\	.	16ddd#'\	.	.
.	.	.	.	.	.	16dd#'\	.	16ddd#'\	.	.
8B\	.	.	.	.	.	16dd#'\	.	16ddd#'\	.	.
.	.	.	.	.	.	16dd#'\JJ	.	16ddd#'\JJ	.	.
=57	=57	=57	=57	=57	=57	=57	=57	=57	=57	=57
*	*	*	*	*	*	*tremolo	*	*tremolo	*	*
8BB\	.	4F#\	.	4f#\]	.	16dd#X'\LL	.	16ddd#X'\LL	.	.
!	!	!	!	!	!	!LO:SIC:s=16dd#'	!	!LO:SIC:s=16ddd#'	!	!
.	.	.	.	.	.	16dd#'\JJ	.	16ddd#'\JJ	.	.
!	!	!	!	!	!	!LO:SIC:s=16dd#'	!	!LO:SIC:s=16ddd#'	!	!
8B\	.	.	.	.	.	16dd#'\LL	.	16ddd#'\LL	.	.
.	.	.	.	.	.	16dd#'\JJ	.	16ddd#'\JJ	.	.
8r	.	8r	.	8r	.	16ff#'\LL	.	16fff#'\LL	.	.
.	.	.	.	.	.	16ff#'\JJ	.	16fff#'\JJ	.	.
*	*	*	*	*	*	*Xtremolo	*	*Xtremolo	*	*
!!LO:LB:g=original
=58	=58	=58	=58	=58	=58	=58	=58	=58	=58	=58
*	*	*	*	*	*	*	*	*8va	*	*
4.r	.	16D#X'\LL	.	16f#'\LL	.	8bb\L	.	8bbb\L	.	.
.	.	16D#'\	.	16f#'\JJ	.	.	.	.	.	.
.	.	16D#'\	.	16B'\LL	.	8ff#\	.	8fff#\	.	.
.	.	16D#'\	.	16B'\	.	.	.	.	.	.
.	.	16D#'\	.	16B'\	.	8ff##X\J	.	8fff##X\J	.	.
.	.	16D#'\JJ	.	16B'\JJ	.	.	.	.	.	.
*	*	*	*	*	*	*	*	*X8va	*	*
=59	=59	=59	=59	=59	=59	=59	=59	=59	=59	=59
4.r	.	16E'\LL	.	16B'\LL	.	8gg#X\L	.	8ggg#X\L	.	.
.	.	16E'\	.	16B'\	.	.	.	.	.	.
.	.	16G#X'\	.	16e'\	.	8b\	.	8bb\	.	.
.	.	16G#'\	.	16e'\	.	.	.	.	.	.
.	.	16G#'\	.	16e'\	.	8cc#X\J	.	8ccc#X\J	.	.
.	.	16G#'\JJ	.	16e'\JJ	.	.	.	.	.	.
=60	=60	=60	=60	=60	=60	=60	=60	=60	=60	=60
4.r	.	(8F##X\L	.	(8d#X\L	.	16dd#X'\LL	.	16ddd#X'\LL	.	.
.	.	.	.	.	.	16dd#'\	.	16ddd#'\	.	.
.	.	8E#X\	.	8G#X\	.	16dd#'\	.	16ddd#'\	.	.
.	.	.	.	.	.	16dd#'\	.	16ddd#'\	.	.
!	!	!LO:SIC:v:s=8F##J	!	!	!	!	!	!	!	!
.	.	8F#X\J	.	8A#X\J	.	16dd#'\	.	16ddd#'\	.	.
.	.	.	.	.	.	16dd#'\JJ	.	16ddd#'\JJ	.	.
=61	=61	=61	=61	=61	=61	=61	=61	=61	=61	=61
4.r	.	4G#X\	.	16B\LL	<	(16dd#X\LL	.	(16ddd#X\LL	.	.
.	.	.	.	16c#X\J	.	16cc#X\)	.	16ccc#X\)	.	.
.	.	.	.	8d#X\	.	16b'\	.	16bb'\	.	.
.	.	.	.	.	.	16a#X'\	.	16aa#X'\	.	.
.	.	8Gn\)	.	8e#X\J)	[[	16b'\	.	16bb'\	.	.
.	.	.	.	.	.	16b'\JJ	.	16dd#X'\JJ	.	.
=62	=62	=62	=62	=62	=62	=62	=62	=62	=62	=62
4.r	.	[4.F#\	.	(8f#\L	.	16b'\LL	.	16dd#X'\LL	.	.
.	.	.	.	.	.	16b'\	.	16dd#'\	.	.
.	.	.	.	8e#X\	.	16b'\	.	16cc#X'\	.	.
.	.	.	.	.	.	16b'\	.	16cc#'\	.	.
.	.	.	.	8en\J)	.	16a#X'\	.	16gg#X'\	.	.
.	.	.	.	.	.	16a#'\JJ	.	16gg#'\JJ	.	.
=63	=63	=63	=63	=63	=63	=63	=63	=63	=63	=63
!	!	!	!	!	!	!LO:MO:null:mod=*tremolo	!	!	!	!
*	*	*	*	*	*	*	*	*	*	*
8r	.	4.F#\]	.	(16d#X\LL	.	16b'\LL	.	16ff#'\LL	.	.
!	!	!	!	!	!	!LO:SIC:s=16b'	!	!	!	!
.	.	.	.	16e\)	.	16b'\JJ	.	16gg#X'\	.	.
!	!	!	!	!	!	!LO:MO:mod=*null:null	!	!	!	!
*	*	*	*	*	*	*tremolo	*	*	*	*
!	!	!	!	!	!	!LO:SIC:s=16b'	!	!	!	!
8F#\	.	.	.	(16d#\	.	16b'\LL	.	16ff#'\	.	.
!	!	!	!	!	!	!LO:SIC:s=16b'	!	!	!	!
.	.	.	.	16e\J)	.	16b'\JJ	.	16gg#'\	.	.
!	!	!	!	!	!	!LO:SIC:s=16b'	!	!	!	!
8r	.	.	.	8d#\J	.	16b'\LL	.	16ff#'\	.	.
.	.	.	.	.	.	16b'\JJ	.	16dd#X'\JJ	.	.
*	*	*	*	*	*	*Xtremolo	*	*	*	*
=64	=64	=64	=64	=64	=64	=64	=64	=64	=64	=64
4.r	.	[4.F#\	.	(8f#\L	.	16b'\LL	.	16dd#X'\LL	.	.
.	.	.	.	.	.	16b'\	.	16dd#'\	.	.
.	.	.	.	8e#X\	.	16b'\	.	16cc#X'\	.	.
.	.	.	.	.	.	16b'\	.	16cc#'\	.	.
.	.	.	.	8en\J	.	16a#X'\	.	16gg#X'\	.	.
.	.	.	.	.	.	16a#'\JJ	.	16gg#'\JJ	.	.
=65	=65	=65	=65	=65	=65	=65	=65	=65	=65	=65
*	*	*	*	*	*	*tremolo	*	*	*	*
8r	.	4.F#\]	.	(16d#X\LL	.	16b'\LL	.	16ff#X'\LL	.	.
!	!	!	!	!	!	!LO:SIC:s=16b'	!	!	!	!
.	.	.	.	16e\)	.	16b'\JJ	.	16gg#X'\	.	.
!	!	!	!	!	!	!LO:SIC:s=16b'	!	!	!	!
8F#\	.	.	.	(16d#\)	.	16b'\LL	.	16ff#'\	.	.
!	!	!	!	!	!	!LO:SIC:s=16b'	!	!	!	!
.	.	.	.	16e\J)	.	16b'\JJ	.	16gg#'\	.	.
!	!	!	!	!	!	!LO:SIC:s=16b'	!	!	!	!
8r	.	.	.	8d#\J	.	16b'\LL	.	16ff#'\	.	.
.	.	.	.	.	.	16b'\JJ	.	16dd#X'\JJ	.	.
*	*	*	*	*	*	*Xtremolo	*	*	*	*
!!LO:LB:g=original
=66	=66	=66	=66	=66	=66	=66	=66	=66	=66	=66
*	*	*	*	*^	*	*	*	*	*	*
!	!	!	!	!LO:TX:a:t=divisi	!	!	!	!	!	!	!
4.r	.	[4.F#\	.	16e'/LL	8r	.	16b'/LL	.	16cc#X'\LL	.	.
.	.	.	.	16e'/	.	.	16b'/	.	16cc#'\	.	.
.	.	.	.	16e'/	8B'\L	.	16g#X'/	.	16ee'\	.	.
.	.	.	.	16e'/	.	.	16g#'/	.	16ee'\	.	.
.	.	.	.	16e'/	8A#X'\J	.	16g#'/	.	16cc#'\	.	.
.	.	.	.	16e'/JJ	.	.	16g#'/JJ	.	16cc#'\JJ	.	.
=67	=67	=67	=67	=67	=67	=67	=67	=67	=67	=67	=67
*	*	*	*	*tremolo	*	*	*tremolo	*	*	*	*
8r	.	4.F#\]	.	16e'/LL	8B\L	.	16g#X'/LL	.	16ee'\LL	.	.
!	!	!	!	!LO:SIC:s=16e'	!	!	!LO:SIC:s=16g#'	!	!	!	!
.	.	.	.	16e'/JJ	.	.	16g#'/JJ	.	16ee'\	.	.
!	!	!	!	!LO:SIC:s=16e'	!	!	!LO:SIC:s=16g#'	!	!	!	!
8F#\	.	.	.	16e'/LL	8A#X\	.	16g#'/LL	.	16cc#X'\	.	.
!	!	!	!	!LO:SIC:s=16e'	!	!	!	!	!	!	!
.	.	.	.	16e'/JJ	.	.	16g#'/JJ	.	16cc#'\	.	.
!	!	!	!	!LO:SIC:s=16e'	!	!	!	!	!	!	!
8FF#\	.	.	.	16e'/LL	8A#\J	.	16f#'/LL	.	16dd#X'\	.	.
.	.	.	.	16e'/JJ	.	.	16f#'/JJ	.	16dd#'\JJ	.	.
*	*	*	*	*Xtremolo	*	*	*Xtremolo	*	*	*	*
=68	=68	=68	=68	=68	=68	=68	=68	=68	=68	=68	=68
8BB\	.	8B\	.	16d#X/LL	16B\LL	.	8f#/	.	8b/	.	.
.	.	.	.	16e/	16c#X\	.	.	.	.	.	.
8r	.	8r	.	16d#/	16B\	.	8r	.	8r	.	.
.	.	.	.	16e/	16c#\	.	.	.	.	.	.
!	!	!LO:SIC:s=16F#'\LL	!	!	!	!	!LO:SIC:s=16f#/LL'	!	!	!	!
8F#\	.	(16F#'\LL	.	16f#/	16d#\	.	16f#/LL	.	16ff#'\LL	.	.
!	!	!LO:SIC:s=16F#'\JJ	!	!	!	!	!LO:SIC:s=16f#/JJ'	!	!	!	!
.	.	16F#'\JJ)	.	16e/JJ	16c#\JJ	.	16f#/JJ	.	16ff#'\JJ	.	.
=69	=69	=69	=69	=69	=69	=69	=69	=69	=69	=69	=69
8BB\	.	8BB\	.	16d#X/LL	16B\LL	.	4r	.	4r	.	.
.	.	.	.	16e/	16c#X\	.	.	.	.	.	.
8r	.	8r	.	16d#/	16B\	.	.	.	.	.	.
.	.	.	.	16e/	16c#\	.	.	.	.	.	.
!	!	!	!	!	!	!	!LO:SIC:s=16f#/LL'	!	!LO:SIC:s=16ff#/LL'	!	!
8F#\	.	16F#\LL	.	16f#/	16d#\	.	16f#/LL	.	16ff#\LL	.	.
!	!	!	!	!	!	!	!LO:SIC:s=16f#/JJ'	!	!LO:SIC:s=16ff#/JJ'	!	!
.	.	16F#\JJ	.	16e/JJ	16c#\JJ	.	16f#/JJ	.	16ff#\JJ	.	.
*	*	*	*	*v	*v	*	*	*	*	*	*
=70	=70	=70	=70	=70	=70	=70	=70	=70	=70	=70
8BB\	.	8BB\	.	16B\LL	.	16d#X/LL	.	4r	.	.
.	.	.	.	16c#X\	.	16e/	.	.	.	.
8r	.	8r	.	16d#X\	.	16f#/	.	.	.	.
.	.	.	.	16e\	.	16g/	.	.	.	.
!	!	!	!	!	!	!	!	!LO:SIC:s=16bb 16b'LL	!	!
8B\	.	16B\LL	.	16f#\	.	16a/	.	16bbLL 16b/	.	.
!	!	!	!	!	!	!	!	!LO:SIC:s=16bb 16b'JJ	!	!
.	.	16B\JJ	.	16e\JJ	.	16g/JJ	.	16bbJJ 16b/	.	.
=71	=71	=71	=71	=71	=71	=71	=71	=71	=71	=71
8BB\	.	8BB\	.	16d#X\LL	.	16f#/LL	.	4r	.	.
.	.	.	.	16e\	.	16g/	.	.	.	.
8r	.	8r	.	16d#\	.	16f#/	.	.	.	.
.	.	.	.	16e\	.	16g/	.	.	.	.
!	!	!	!	!	!	!	!	!LO:SIC:s=16bb 16b'LL	!	!
8B\	.	16B\LL	.	16f#\	.	16a/	.	16bbLL 16b/	.	.
!	!	!	!	!	!	!	!	!LO:SIC:s=16bb 16b'JJ	!	!
.	.	16B\JJ	.	16e\JJ	.	16g/JJ	.	16bbJJ 16b/	.	.
=72	=72	=72	=72	=72	=72	=72	=72	=72	=72	=72
8BB\	.	8BB\	.	16d#X\LL	.	16f#/LL	.	4r	.	.
.	.	.	.	16e\	.	16g/	.	.	.	.
4r	.	4r	.	16d#\	.	16f#/	.	.	.	.
.	.	.	.	16e\	.	16g/	.	.	.	.
.	.	.	.	16f#\	.	16a/	.	8r	.	.
.	.	.	.	16e\JJ	.	16g/JJ	.	.	.	.
=73	=73	=73	=73	=73	=73	=73	=73	=73	=73	=73
4.r	.	4.r	.	16d#X\LL	.	16f#/LL	.	4.r	.	.
.	.	.	.	16e\	.	16g/	.	.	.	.
.	.	.	.	16d#\	.	16f#/	.	.	.	.
.	.	.	.	16e\	.	16g/	.	.	.	.
.	.	.	.	16d#\	.	16a/	.	.	.	.
.	.	.	.	16c\JJ	.	16a#X/JJ	.	.	.	.
!!LO:PB:g=original
=74	=74	=74	=74	=74	=74	=74	=74	=74	=74	=74
!	!	!LO:TX:a:t=piz:mod=pizz.	!	!LO:MO:null:mod=*tremolo	!	!LO:MO:null:mod=*tremolo	!	!	!	!
*	*	*	*	*	*	*	*	*	*	*
4.r	.	8BB\	.	16B'/LL	.	16b'/LL	.	4.r	.	.
.	.	.	.	16B'/	.	16b'/	.	.	.	.
.	.	4r	.	16B'/	.	16b'/	.	.	.	.
.	.	.	.	16B'/	.	16b'/	.	.	.	.
.	.	.	.	16B'/	.	16b'/	.	.	.	.
.	.	.	.	16B'/JJ	.	16b'/JJ	.	.	.	.
=75	=75	=75	=75	=75	=75	=75	=75	=75	=75	=75
!	!	!LO:TX:a:t=piz:mod=	!	!	!	!	!	!LO:MO:null:mod=*tremolo	!	!
*	*	*	*	*	*	*	*	*	*	*
4.r	.	8B\	.	16B'/LL	.	8b/	.	16bb\LL	.	.
.	.	.	.	16B'/	.	.	.	16bb\	.	.
.	.	4r	.	16B'/	.	4r	.	16bb\	.	.
.	.	.	.	16B'/	.	.	.	16bb\	.	.
.	.	.	.	16B'/	.	.	.	16bb\	.	.
.	.	.	.	16B'/JJ	.	.	.	16bb\JJ	.	.
=76	=76	=76	=76	=76	=76	=76	=76	=76	=76	=76
*	*	*	*	*rep	*	*	*	*rep	*	*
8B\	.	4.r	.	16B'/LL	.	16b'/LL	.	16bb\LL	.	.
.	.	.	.	16B'/	.	16b'/	.	16bb\	.	.
4r	.	.	.	16B'/	.	16b'/	.	16bb\	.	.
.	.	.	.	16B'/	.	16b'/	.	16bb\	.	.
.	.	.	.	16B'/	.	16b'/	.	16bb\	.	.
.	.	.	.	16B'/JJ	.	16b'/JJ	.	16bb\JJ	.	.
*	*	*	*	*Xrep	*	*	*	*Xrep	*	*
=77	=77	=77	=77	=77	=77	=77	=77	=77	=77	=77
!	!	!	!	!LO:MO:null:mod=*Xtremolo	!	!LO:MO:null:mod=*Xtremolo	!	!	!	!
*	*	*	*	*	*	*	*	*rep	*	*
8BB\	.	4.r	.	8B/	.	8b/	.	16bb\LL	.	.
.	.	.	.	.	.	.	.	16bb\	.	.
4r	.	.	.	4r	.	4r	.	16bb\	.	.
.	.	.	.	.	.	.	.	16bb\	.	.
.	.	.	.	.	.	.	.	16bb\	.	.
.	.	.	.	.	.	.	.	16bb\JJ	.	.
*	*	*	*	*	*	*	*	*Xrep	*	*
=78	=78	=78	=78	=78	=78	=78	=78	=78	=78	=78
*	*	*	*	*	*	*	*	*rep	*	*
.	.	.	.	.	.	(16qqa/LL	.	.	.	.
.	.	.	.	.	.	16qqb/JJ)	.	.	.	.
4.r	.	4.r	.	8r	.	4.cc^\	.	16bb\LL	.	.
.	.	.	.	.	.	.	.	16bb\	.	.
!	!	!	!	!LO:TX:a:t=piz:mod=pizz.	!	!	!	!	!	!
.	.	.	.	8f#\	.	.	.	16bb\	.	.
.	.	.	.	.	.	.	.	16bb\	.	.
.	.	.	.	8B\	.	.	.	16bb\	.	.
.	.	.	.	.	.	.	.	16bb\JJ	.	.
*	*	*	*	*	*	*	*	*Xrep	*	*
=79	=79	=79	=79	=79	=79	=79	=79	=79	=79	=79
*	*	*	*	*	*	*	*	*rep	*	*
.	.	.	.	.	.	(16qqa/LL	.	.	.	.
!	!	!LO:TX:a:t=piz:mod=	!	!	!	!	!	!	!	!
.	.	.	.	.	.	16qqb/JJ)	.	.	.	.
4.r	.	8F#\	.	4.r	.	4.cc^\	.	16bb\LL	.	.
.	.	.	.	.	.	.	.	16bb\	.	.
.	.	8B\	.	.	.	.	.	16bb\	.	.
.	.	.	.	.	.	.	.	16bb\	.	.
.	.	8BB/	.	.	.	.	.	16bb\	.	.
.	.	.	.	.	.	.	.	16bb\JJ	.	.
*	*	*	*	*	*	*	*	*Xrep	*	*
=80	=80	=80	=80	=80	=80	=80	=80	=80	=80	=80
*	*	*	*	*	*	*	*	*rep	*	*
!LO:TX:a:t=piz:mod=	!	!	!	!	!	!	!	!	!	!
8E\	.	4.r	.	4.r	.	(16b/LL	.	16bb\LL	.	.
.	.	.	.	.	.	16a/)	.	16bb\	.	.
8B\	.	.	.	.	.	16g'/	.	16bb\	.	.
.	.	.	.	.	.	16a'/	.	16bb\	.	.
8BB\	.	.	.	.	.	16b'/	.	16bb\	.	.
.	.	.	.	.	.	16g'/JJ	.	16bb\JJ	.	.
*	*	*	*	*	*	*	*	*Xrep	*	*
=81	=81	=81	=81	=81	=81	=81	=81	=81	=81	=81
*	*	*	*	*	*	*	*	*rep	*	*
!	!	!	!	!LO:MO:null:mod=!LO&colon;TX&colon;a&colon;t=[arco]	!	!	!	!	!	!
!	!	!	!	!	!	!	!	!	!	!
.	.	.	.	(16qqB/LL	.	.	.	.	.	.
.	.	.	.	16qqc#X/JJ)	.	.	.	.	.	.
4.r	.	8r	.	4.d#X^\	.	(8a/L	.	16bb\LL	.	.
.	.	.	.	.	.	.	.	16bb\	.	.
!	!	!LO:TX:a:t=piz:mod=	!	!	!	!	!	!	!	!
.	.	8F#\	.	.	.	8g/	.	16bb\	.	.
.	.	.	.	.	.	.	.	16bb\	.	.
.	.	8BB\	.	.	.	8f#/J)	.	16bb\	.	.
.	.	.	.	.	.	.	.	16bb\JJ	.	.
*	*	*	*	*	*	*	*	*Xrep	*	*
!!LO:LB:g=original
=82	=82	=82	=82	=82	=82	=82	=82	=82	=82	=82
.	.	.	.	(<16qqB/LL	.	.	.	.	.	.
.	.	.	.	16qqc/JJ)	.	.	.	.	.	.
4r	.	8FF#/	.	4.d#X^\	.	(8bb\L	.	16bb'\LL	.	.
.	.	.	.	.	.	.	.	16bb'\	.	.
.	.	8BB/	.	.	.	8b\	.	16bb'\	.	.
!	!	!	!	!	!	!	!	!LO:SIC:s=16bb'JJ	!	!
.	.	.	.	.	.	.	.	16bb'\	.	.
!LO:TX:a:t=piz:mod=	!	!	!	!	!	!	!	!LO:SIC:s=16fff#'LL	!	!
8BB/	.	8r	.	.	.	8aa\J)	.	16fff#'\	.	.
.	.	.	.	.	.	.	.	16fff#'\JJ	.	.
=83	=83	=83	=83	=83	=83	=83	=83	=83	=83	=83
*	*	*	*	*	*	*	*	*tremolo	*	*
!	!	!LO:TX:a:t=piz:mod=	!	!	!	!	!	!	!	!
8E/	.	8EE/	.	16e\LL	.	(8.gg\L	.	16eee'\LL	.	.
!	!	!	!	!	!	!	!	!LO:SIC:s=16eee'	!	!
.	.	.	.	16d#X\	.	.	.	16eee'\JJ	.	.
!	!	!	!	!	!	!	!	!LO:SIC:s=16eee'	!	!
8B\	.	4r	.	16e\	.	.	.	16eee'\LL	.	.
!	!	!	!	!	!	!	!	!LO:SIC:s=16eee'	!	!
.	.	.	.	16f#\	.	16ff#\K	.	16eee'\JJ	.	.
!	!	!	!	!	!	!	!	!LO:SIC:s=16eee'	!	!
8E/	.	.	.	16g\	.	8ee\J)	.	16eee'\LL	.	.
.	.	.	.	16e\JJ	.	.	.	16eee'\JJ	.	.
=84	=84	=84	=84	=84	=84	=84	=84	=84	=84	=84
*	*	*	*	*	*	*	*	*rep	*	*
8AA/	.	8AA/	.	(8a\L	.	(8cc/L	.	16eee'\LL	.	.
!	!	!	!	!	!	!	!	!LO:SIC:s=16eee'	!	!
.	.	.	.	.	.	.	.	16eee'\JJ	.	.
!	!	!	!	!	!	!	!	!LO:SIC:s=16eee'	!	!
4r	.	4r	.	8g\	.	8b/	.	16eee'\LL	.	.
!	!	!	!	!	!	!	!	!LO:SIC:s=16eee'	!	!
.	.	.	.	.	.	.	.	16eee'\JJ	.	.
!	!	!	!	!	!	!	!	!LO:SIC:s=16eee'	!	!
.	.	.	.	8f#\J	.	8a/J	.	16eee'\LL	.	.
.	.	.	.	.	.	.	.	16eee'\JJ	.	.
*	*	*	*	*	*	*	*	*Xrep	*	*
=85	=85	=85	=85	=85	=85	=85	=85	=85	=85	=85
*	*	*	*	*	*	*	*	*rep	*	*
4.r	.	8r	.	8.e\L	.	8.g/L	.	16eee'\LL	.	.
!	!	!	!	!	!	!	!	!LO:SIC:s=16eee'	!	!
.	.	.	.	.	.	.	.	16eee'\JJ	.	.
!	!	!LO:MO:null:mod=!LO&colon;TX&colon;a&colon;t=[arco]	!	!	!	!	!	!	!	!
!	!	!	!	!	!	!	!	!LO:SIC:s=16eee'	!	!
.	.	(8E\L	.	.	.	.	.	16eee'\LL	.	.
!	!	!	!	!	!	!	!	!LO:SIC:s=16eee'	!	!
.	.	.	.	16B\K	.	16f#/K	.	16eee'\JJ	.	.
!	!	!	!	!	!	!	!	!LO:SIC:s=16eee'	!	!
.	.	8EE\J)	.	8G\J)	.	8e/J)	.	16eee'\LL	.	.
.	.	.	.	.	.	.	.	16eee'\JJ	.	.
*	*	*	*	*	*	*	*	*Xrep	*	*
=86	=86	=86	=86	=86	=86	=86	=86	=86	=86	=86
*	*	*	*	*	*	*	*	*rep	*	*
8AA\	.	(8A\L	.	(8c/L	.	16ee'\LL	.	16eee'\LL	.	.
!	!	!	!	!	!	!	!	!LO:SIC:s=16eee'	!	!
.	.	.	.	.	.	16ee'\	.	16eee'\JJ	.	.
!	!	!	!	!	!	!	!	!LO:SIC:s=16eee'	!	!
4r	.	8G\	.	8B/	.	16ee'\	.	16eee'\LL	.	.
!	!	!	!	!	!	!	!	!LO:SIC:s=16eee'	!	!
.	.	.	.	.	.	16ee'\	.	16eee'\JJ	.	.
!	!	!	!	!	!	!	!	!LO:SIC:s=16eee'	!	!
.	.	8F#\J	.	8A/J	.	16ee'\	.	16eee'\LL	.	.
.	.	.	.	.	.	16ee'\JJ	.	16eee'\JJ	.	.
*	*	*	*	*	*	*	*	*Xrep	*	*
*	*	*	*	*	*	*	*	*Xtremolo	*	*
=87	=87	=87	=87	=87	=87	=87	=87	=87	=87	=87
8r	.	8.E\L	.	8.G/L	.	16e'/LL	.	16eee'\LL	.	.
.	.	.	.	.	.	16e'/	.	16bb'\	.	.
!LO:TX:a:t=piz:mod=	!	!	!	!	!	!	!	!	!	!
8E\L	.	.	.	.	.	16e'/	.	16gg'\	.	.
.	.	16BB\K	.	16F#/K	.	16e'/	.	16ee'\	.	.
8EE\J	.	8GG\J)	.	8E/J)	.	16e'/	.	16b'\	.	.
.	.	.	.	.	.	16e'/JJ	.	16g'\JJ	.	.
=88	=88	=88	=88	=88	=88	=88	=88	=88	=88	=88
8BB\	.	(4.BB\	.	16F#'/LL	.	4.d#X/	.	8r	.	.
.	.	.	.	16F#'/	.	.	.	.	.	.
4r	.	.	.	16F#'/	.	.	.	8f#/L	.	.
.	.	.	.	16F#'/	.	.	.	.	.	.
.	.	.	.	16F#'/	.	.	.	(8b^>/J	.	.
.	.	.	.	16F#'/JJ	.	.	.	.	.	.
=89	=89	=89	=89	=89	=89	=89	=89	=89	=89	=89
8E\	.	4.E\)	.	4.G/	.	(16e/LL	.	16g/LL	.	.
.	.	.	.	.	.	16B/)	.	16f#/)	.	.
4r	.	.	.	.	.	16B'/	.	16e'/	.	.
.	.	.	.	.	.	16B'/	.	16f#'/	.	.
.	.	.	.	.	.	16B'/	.	16g'/	.	.
.	.	.	.	.	.	16B'/JJ	.	16e'/JJ	.	.
!!LO:LB:g=original
=90	=90	=90	=90	=90	=90	=90	=90	=90	=90	=90
8D\	.	(4.D\	.	16F#'/LL	.	(8d/L	.	8r	.	.
.	.	.	.	16F#'/	.	.	.	.	.	.
4r	.	.	.	16G'/	.	8e/	.	8a/L	.	.
.	.	.	.	16G'/	.	.	.	.	.	.
.	.	.	.	16A'/	.	8f#/J)	.	(8dd^>/J	.	.
.	.	.	.	16A'/JJ	.	.	.	.	.	.
=91	=91	=91	=91	=91	=91	=91	=91	=91	=91	=91
8GG\	.	4.GG\)	.	(>4B/	.	(16g/LL	.	16b/LL	.	.
.	.	.	.	.	.	16d/)	.	16a/)	.	.
4r	.	.	.	.	.	16B'/	.	16g'/	.	.
.	.	.	.	.	.	16B'/	.	16a'/	.	.
.	.	.	.	8G/)	.	16B'/	.	16b'/	.	.
.	.	.	.	.	.	16B'/JJ	.	16g'/JJ	.	.
=92	=92	=92	=92	=92	=92	=92	=92	=92	=92	=92
8AA\	.	16AA'\LL	.	4.E/	.	4.c/	.	16f#'/LL	.	.
.	.	16AA'\	.	.	.	.	.	16a'/	.	.
4r	.	16AA'\	.	.	.	.	.	16cc'/	.	.
.	.	16AA'\	.	.	.	.	.	16ee'/	.	.
.	.	16AA'\	.	.	.	.	.	16ff#'/	.	.
.	.	16AA'\JJ	.	.	.	.	.	16aa'/JJ	.	.
=93	=93	=93	=93	=93	=93	=93	=93	=93	=93	=93
*	*	*tremolo	*	*	*	*	*	*	*	*
8BB\	.	16BB'\LL	.	(8E/L	.	(>8B/L	.	16gg'\LL	.	.
!	!	!LO:SIC:s=16BB'	!	!	!	!	!	!	!	!
.	.	16BB'\JJ	.	.	.	.	.	16gg'\	.	.
!	!	!LO:SIC:s=16BB'	!	!	!	!	!	!	!	!
4r	.	16BB'\LL	.	8G/	.	8e/	.	16bb'\	.	.
!	!	!LO:SIC:s=16BB'	!	!	!	!	!	!	!	!
.	.	16BB'\JJ	.	.	.	.	.	16bb'\	.	.
!	!	!LO:SIC:s=16BB'	!	!	!	!	!	!	!	!
.	.	16BB'\LL	.	8B/J)	.	8g/J)	.	16ee'\	.	.
.	.	16BB'\JJ	.	.	.	.	.	16ee'\JJ	.	.
=94	=94	=94	=94	=94	=94	=94	=94	=94	=94	=94
*	*	*rep	*	*	*	*	*	*	*	*
8BB\	.	16BB'\LL	.	(4.A/	.	8f#/	.	16ff#'\LL	.	.
!	!	!LO:SIC:s=16BB'	!	!	!	!	!	!	!	!
.	.	16BB'\JJ	.	.	.	.	.	16bb'\	.	.
!	!	!LO:SIC:s=16BB'	!	!	!	!	!	!	!	!
4r	.	16BB'\LL	.	.	.	(>[4cc^>/	.	16aa'\	.	.
!	!	!LO:SIC:s=16BB'	!	!	!	!	!	!	!	!
.	.	16BB'\JJ	.	.	.	.	.	16bb'\	.	.
!	!	!LO:SIC:s=16BB'	!	!	!	!	!	!	!	!
.	.	16BB'\LL	.	.	.	.	.	16ccc'\	.	.
.	.	16BB'\JJ	.	.	.	.	.	16eee'\JJ	.	.
*	*	*Xrep	*	*	*	*	*	*	*	*
=95	=95	=95	=95	=95	=95	=95	=95	=95	=95	=95
*	*	*rep	*	*	*	*	*	*	*	*
8BB\	.	16BB'\LL	.	4.B/)	.	8cc/L]	.	16ddd#X'\LL	.	.
!	!	!LO:SIC:s=16BB'	!	!	!	!	!	!	!	!
.	.	16BB'\JJ	.	.	.	.	.	16ddd#'\	.	.
!	!	!LO:SIC:s=16BB'	!	!	!	!	!	!	!	!
4r	.	16BB'\LL	.	.	.	8b/	.	16fff#'\	.	.
!	!	!LO:SIC:s=16BB'	!	!	!	!	!	!	!	!
.	.	16BB'\JJ	.	.	.	.	.	16fff#'\	.	.
!	!	!LO:SIC:s=16BB'	!	!	!	!	!	!	!	!
.	.	16BB'\LL	.	.	.	8a/J)	.	16ddd#'\	.	.
.	.	16BB'\JJ	.	.	.	.	.	16ddd#'\JJ	.	.
*	*	*Xrep	*	*	*	*	*	*	*	*
*	*	*Xtremolo	*	*	*	*	*	*	*	*
=96	=96	=96	=96	=96	=96	=96	=96	=96	=96	=96
8E\	.	8E\	.	16B'/LL	.	8g/	.	16eee\LL	.	.
.	.	.	.	16e'/	.	.	.	16eee\	.	.
4r	.	4r	.	16e'/	.	4r	.	16eee\	.	.
.	.	.	.	16e'/	.	.	.	16eee\	.	.
.	.	.	.	16e'/	.	.	.	16eee\	.	.
.	.	.	.	16e'/JJ	.	.	.	16eee\JJ	.	.
=97	=97	=97	=97	=97	=97	=97	=97	=97	=97	=97
!	!	!	!	!	!	!LO:MO:null:mod=*tremolo	!	!	!	!
*	*	*	*	*rep	*	*	*	*	*	*
4.r	.	4.r	.	16B'/LL	.	16ee'\LL	.	8eee\	.	.
.	.	.	.	16e'/	.	16ee'\	.	.	.	.
.	.	.	.	16e'/	.	16ee'\	.	4r	.	.
.	.	.	.	16e'/	.	16ee'\	.	.	.	.
.	.	.	.	16e'/	.	16ee'\	.	.	.	.
.	.	.	.	16e'/JJ	.	16ee'\JJ	.	.	.	.
*	*	*	*	*Xrep	*	*	*	*	*	*
!!LO:PB:g=original
=98	=98	=98	=98	=98	=98	=98	=98	=98	=98	=98
.	.	.	.	.	.	.	.	(16qqddd\LL	.	.
.	.	.	.	.	.	.	.	16qqeee\JJ)	.	.
4.r	.	4.r	.	8r	.	16ee'\LL	.	4.fffn^\	.	.
.	.	.	.	.	.	16ee'\	.	.	.	.
!	!	!	!	!LO:TX:a:t=piz:mod=pizz.	!	!	!	!	!	!
.	.	.	.	8d\L	.	16ee'\	.	.	.	.
.	.	.	.	.	.	16ee'\	.	.	.	.
.	.	.	.	8G#X\J	.	16ee'\	.	.	.	.
.	.	.	.	.	.	16ee'\JJ	.	.	.	.
=99	=99	=99	=99	=99	=99	=99	=99	=99	=99	=99
.	.	.	.	.	.	.	.	(16qqddd\LL	.	.
.	.	.	.	.	.	.	.	16qqeee\JJ)	.	.
*	*	*	*	*	*	*rep	*	*	*	*
!	!	!LO:MO:null:mod=!LO&colon;TX&colon;a&colon;t=pizz.	!	!	!	!	!	!	!	!
!	!	!	!	!	!	!	!	!	!	!
4.r	.	8E\	.	4.r	.	16ee'\LL	.	4.fffn^\	.	.
.	.	.	.	.	.	16ee'\	.	.	.	.
!	!	!LO:TX:a:t=piz:mod=	!	!	!	!	!	!	!	!
.	.	8BB\	.	.	.	16ee'\	.	.	.	.
.	.	.	.	.	.	16ee'\	.	.	.	.
.	.	8EE\	.	.	.	16ee'\	.	.	.	.
.	.	.	.	.	.	16ee'\JJ	.	.	.	.
*	*	*	*	*	*	*Xrep	*	*	*	*
=100	=100	=100	=100	=100	=100	=100	=100	=100	=100	=100
*	*	*	*	*	*	*rep	*	*	*	*
8A\	.	8AA\	.	8e 8A/	.	16ee'\LL	.	(16eee\LL	.	.
.	.	.	.	.	.	16ee'\	.	16ddd\)	.	.
!LO:TX:a:t=piz:mod=	!	!	!	!	!	!	!	!	!	!
8E\	.	4r	.	4r	.	16ee'\	.	16ccc'\	.	.
.	.	.	.	.	.	16ee'\	.	16ddd'\	.	.
8AA\	.	.	.	.	.	16ee'\	.	16eee'\	.	.
.	.	.	.	.	.	16ee'\JJ	.	16ccc'\JJ	.	.
*	*	*	*	*	*	*Xrep	*	*	*	*
=101	=101	=101	=101	=101	=101	=101	=101	=101	=101	=101
*	*	*	*	*	*	*rep	*	*	*	*
.	.	.	.	.	.	.	.	(16qqbb\LL	.	.
.	.	.	.	.	.	.	.	16qqccc\JJ)	.	.
4.r	.	4.r	.	8r	.	16ee'\LL	.	4.ddd^\	.	.
.	.	.	.	.	.	16ee'\	.	.	.	.
!	!	!	!	!LO:TX:a:t=piz:mod=	!	!	!	!	!	!
.	.	.	.	8g#X\	.	16ee'\	.	.	.	.
.	.	.	.	.	.	16ee'\	.	.	.	.
.	.	.	.	8B/	.	16ee'\	.	.	.	.
.	.	.	.	.	.	16ee'\JJ	.	.	.	.
*	*	*	*	*	*	*Xrep	*	*	*	*
=102	=102	=102	=102	=102	=102	=102	=102	=102	=102	=102
.	.	.	.	.	.	.	.	(16qqbb\LL	.	.
!	!	!LO:TX:a:t=piz:mod=	!	!	!	!	!	!	!	!
.	.	.	.	.	.	.	.	16qqccc\JJ)	.	.
*	*	*	*	*	*	*rep	*	*	*	*
4.r	.	8E\	.	4.r	.	16ee'\LL	.	4.ddd^\	.	.
.	.	.	.	.	.	16ee'\	.	.	.	.
.	.	8BB\	.	.	.	16ee'\	.	.	.	.
.	.	.	.	.	.	16ee'\	.	.	.	.
.	.	8EE\	.	.	.	16ee'\	.	.	.	.
.	.	.	.	.	.	16ee'\JJ	.	.	.	.
*	*	*	*	*	*	*Xrep	*	*	*	*
=103	=103	=103	=103	=103	=103	=103	=103	=103	=103	=103
8A\	.	8AA\	.	8a 8c/	.	16ee'\LL	.	(16ccc\LL	.	.
.	.	.	.	.	.	16ee'\	.	16bb\)	.	.
8E\	.	4r	.	4r	.	16ee'\	.	16aa'\	.	.
!	!	!	!	!	!	!LO:SIC:s=16ee'JJ	!	!	!	!
.	.	.	.	.	.	16ee'\	.	16bb'\	.	.
!	!	!	!	!	!	!LO:SIC:s=16ee'\ 16eLL	!	!	!	!
8E 8AA\	.	.	.	.	.	16ee'\ 16e	.	16ccc'\	.	.
.	.	.	.	.	.	16ee'\ 16eJJ	.	16aa'\JJ	.	.
!	!	!	!	!	!	!LO:MO:null:mod=*Xtremolo	!	!	!	!
*	*	*	*	*	*	*	*	*	*	*
=104	=104	=104	=104	=104	=104	=104	=104	=104	=104	=104
.	.	.	.	.	.	(16qqf#/LL	.	.	.	.
.	.	.	.	.	.	16qqg/JJ	.	.	.	.
!	!	!	!	!LO:MO:null:mod=*tremolo	!	!	!	!LO:MO:null:mod=*tremolo	!	!
*	*	*	*	*	*	*	*	*	*	*
!	!	!	!	!LO:MO:null:mod=!LO&colon;TX&colon;a&colon;t=[arco]	!	!	!	!	!	!
!	!	!	!	!	!	!	!	!	!	!
8BB\	.	8r	.	16B'/LL	.	4.a^>/)	.	16bb'\LL	.	.
.	.	.	.	16B'/	.	.	.	16bb'\	.	.
!	!	!LO:TX:a:t=piz:mod=	!	!	!	!	!	!	!	!
4r	.	8BB\	.	16B'/	.	.	.	16bb'\	.	.
.	.	.	.	16B'/	.	.	.	16bb'\	.	.
.	.	8C\	.	16B'/	.	.	.	16bb'\	.	.
.	.	.	.	16B'/JJ	.	.	.	16bb'\JJ	.	.
!!LO:LB:g=original
=105	=105	=105	=105	=105	=105	=105	=105	=105	=105	=105
.	.	.	.	.	.	(16qqf#/LL	.	.	.	.
.	.	.	.	.	.	16qqg/JJ	.	.	.	.
*	*	*	*	*rep	*	*	*	*rep	*	*
4.r	.	8C#X\	.	16B'/LL	.	4.a^>/)	.	16bb'\LL	.	.
.	.	.	.	16B'/	.	.	.	16bb'\	.	.
.	.	8D\	.	16B'/	.	.	.	16bb'\	.	.
.	.	.	.	16B'/	.	.	.	16bb'\	.	.
.	.	8D#X\	.	16B'/	.	.	.	16bb'\	.	.
.	.	.	.	16B'/JJ	.	.	.	16bb'\JJ	.	.
*	*	*	*	*Xrep	*	*	*	*Xrep	*	*
=106	=106	=106	=106	=106	=106	=106	=106	=106	=106	=106
*	*	*	*	*rep	*	*	*	*rep	*	*
4r	.	8E\	.	16B'/LL	.	(16g/LL	.	16bb'\LL	.	.
.	.	.	.	16B'/	.	16f#/)	.	16bb'\	.	.
.	.	4r	.	16B'/	.	16e'/	.	16bb'\	.	.
.	.	.	.	16B'/	.	16f#'/	.	16bb'\	.	.
8E\	.	.	.	16B'/	.	16g'/	.	16bb'\	.	.
.	.	.	.	16B'/JJ	.	16e'/JJ	.	16bb'\JJ	.	.
*	*	*	*	*Xrep	*	*	*	*Xrep	*	*
!	!	!	!	!LO:MO:null:mod=*Xtremolo	!	!	!	!	!	!
*	*	*	*	*	*	*	*	*	*	*
=107	=107	=107	=107	=107	=107	=107	=107	=107	=107	=107
.	.	.	.	(16qqA/LL	.	.	.	.	.	.
.	.	.	.	16qqB/JJ	.	.	.	.	.	.
!	!	!LO:MO:null:mod=*tremolo	!	!	!	!	!	!	!	!
*	*	*	*	*	*	*	*	*rep	*	*
!	!	!LO:MO:null:mod=!LO&colon;TX&colon;a&colon;t=[arco]	!	!	!	!	!	!	!	!
!	!	!	!	!	!	!	!	!	!	!
8BB\	.	16BB'\LL	.	4.c^/)	.	8d#X/L	.	16bb'\LL	.	.
.	.	16BB'\	.	.	.	.	.	16bb'\	.	.
4r	.	16BB'\	.	.	.	(8e/	.	16bb'\	.	.
.	.	16BB'\	.	.	.	.	.	16bb'\	.	.
.	.	16BB'\	.	.	.	8f#/J	.	16bb'\	.	.
.	.	16BB'\JJ	.	.	.	.	.	16bb'\JJ	.	.
*	*	*	*	*	*	*	*	*Xrep	*	*
=108	=108	=108	=108	=108	=108	=108	=108	=108	=108	=108
.	.	.	.	(16qqA/LL	.	.	.	.	.	.
.	.	.	.	16qqB/JJ	.	.	.	.	.	.
*	*	*rep	*	*	*	*	*	*rep	*	*
8BB\	.	16BB'\LL	.	4.c^/)	.	8a/L	.	16bb'\LL	.	.
.	.	16BB'\	.	.	.	.	.	16bb'\	.	.
4r	.	16BB'\	.	.	.	8f#/	.	16bb'\	.	.
.	.	16BB'\	.	.	.	.	.	16bb'\	.	.
.	.	16BB'\	.	.	.	8e/J)	.	16bb'\	.	.
.	.	16BB'\JJ	.	.	.	.	.	16bb'\JJ	.	.
*	*	*Xrep	*	*	*	*	*	*Xrep	*	*
=109	=109	=109	=109	=109	=109	=109	=109	=109	=109	=109
*	*	*rep	*	*	*	*	*	*rep	*	*
8BB\	.	16BB'\LL	.	(16B/LL	.	4.d#X/	.	16bb'\LL	.	.
.	.	16BB'\	.	16A/)	.	.	.	16bb'\	.	.
4r	.	16BB'\	.	16G'/	.	.	.	16bb'\	.	.
.	.	16BB'\	.	16A'/	.	.	.	16bb'\	.	.
.	.	16BB'\	.	16B'/	.	.	.	16bb'\	.	.
.	.	16BB'\JJ	.	16A'/JJ	.	.	.	16bb'\JJ	.	.
*	*	*Xrep	*	*	*	*	*	*Xrep	*	*
=110	=110	=110	=110	=110	=110	=110	=110	=110	=110	=110
!	!	!LO:MO:null:mod=*Xtremolo	!	!	!	!	!	!	!	!
*	*	*	*	*	*	*	*	*rep	*	*
!LO:TX:a:t=rytm:mod=	!	!	!	!	!	!	!	!	!	!
4E\	.	(4E\	.	(4G/	.	(16e/LL	.	16bb'\LL	.	.
.	.	.	.	.	.	16g/)	.	16bb'\	.	.
.	.	.	.	.	.	16f#'/	.	16bb'\	.	.
.	.	.	.	.	.	16g'/	.	16bb'\	.	.
8BB\	.	8BB\)	.	8A/)	.	16d#X'/	.	16bb'\	.	.
.	.	.	.	.	.	16f#'/JJ	.	16bb'\JJ	.	.
*	*	*	*	*	*	*	*	*Xrep	*	*
=111	=111	=111	=111	=111	=111	=111	=111	=111	=111	=111
*	*	*	*	*	*	*	*	*rep	*	*
4E\	.	(4E\	.	(4G/	.	(16e/LL	.	16bb'\LL	.	.
.	.	.	.	.	.	16g/)	.	16bb'\	.	.
.	.	.	.	.	.	16f#'/	.	16bb'\	.	.
.	.	.	.	.	.	16g'/	.	16bb'\	.	.
8BB\	.	8BB\)	.	8A/)	.	16d#X'/	.	16bb'\	.	.
.	.	.	.	.	.	16f#'/JJ	.	16bb'\JJ	.	.
*	*	*	*	*	*	*	*	*Xrep	*	*
!	!	!LO:MO:null:mod=*tremolo	!	!	!	!LO:MO:null:mod=*tremolo	!	!LO:MO:null:mod=*Xtremolo	!	!
*	*	*	*	*	*	*	*	*	*	*
=112	=112	=112	=112	=112	=112	=112	=112	=112	=112	=112
!	!	!	!	!	!	!LO:SIC:s=16e'LL	!	!LO:TX:t=P:problem=mixed beam	!	!
8EE\	.	16EE'\LL	.	16G'/LL	.	16e/LL	.	16bb\LL	.	.
!	!	!	!	!	!	!LO:SIC:s=16e'	!	!	!	!
.	.	16EE'\	.	16G'/	.	16e/	.	16e'/	.	.
!	!	!	!	!	!	!LO:SIC:s=16e'	!	!	!	!
4r	.	16EE'\	.	16G'/	.	16e/	.	16e'/	.	.
!	!	!	!	!	!	!LO:SIC:s=16e'	!	!	!	!
.	.	16EE'\	.	16B'/	.	16e/	.	16g'/	.	.
!	!	!	!	!	!	!LO:SIC:s=16e'	!	!	!	!
.	.	16EE'\	.	16B'/	.	16e/	.	16g'/	.	.
!	!	!	!	!	!	!LO:SIC:s=16e'JJ	!	!	!	!
.	.	16EE'\JJ	.	16G'/JJ	.	16e/JJ	.	16b'/JJ	.	.
=113	=113	=113	=113	=113	=113	=113	=113	=113	=113	=113
*	*	*rep	*	*	*	*rep	*	*	*	*
!	!	!	!	!	!	!LO:SIC:s=16e'LL	!	!	!	!
8EE\	.	16EE'\LL	.	16B/LL	.	16e/LL	.	16b'/LL	.	.
!	!	!	!	!	!	!LO:SIC:s=16e'	!	!	!	!
.	.	16EE'\	.	16G/	.	16e/	.	16ee'/	.	.
!	!	!	!	!	!	!LO:SIC:s=16e'	!	!	!	!
4r	.	16EE'\	.	16B/	.	16e/	.	16ee'/	.	.
!	!	!	!	!	!	!LO:SIC:s=16e'	!	!	!	!
.	.	16EE'\	.	16G/	.	16e/	.	16gg'/	.	.
!	!	!	!	!	!	!LO:SIC:s=16e'	!	!	!	!
.	.	16EE'\	.	16B/	.	16e/	.	16gg'/	.	.
!	!	!	!	!	!	!LO:SIC:s=16e'JJ	!	!	!	!
.	.	16EE'\JJ	.	16G/JJ	.	16e/JJ	.	16bb'/JJ	.	.
*	*	*Xrep	*	*	*	*Xrep	*	*	*	*
!!LO:LB:g=original
=114	=114	=114	=114	=114	=114	=114	=114	=114	=114	=114
*	*	*	*	*^	*	*	*	*	*	*
!	!	!	!	!	!	!	!LO:MO:null:mod=*Xtremolo	!	!	!	!
*	*	*rep	*	*	*	*	*	*	*	*	*
8E\	.	16EE'\LL	.	8G/L	16G/LL	.	8e/L	.	16bb'\LL	.	.
.	.	16EE'\	.	.	16G/	.	.	.	16ee'\	.	.
4r	.	16EE'\	.	8B/	16G/	.	8g/	.	16ee'\	.	.
.	.	16EE'\	.	.	16B/	.	.	.	16gg'\	.	.
.	.	16EE'\	.	8e/J	16B/	.	8g/J	.	16gg'\	.	.
.	.	16EE'\JJ	.	.	16G/JJ	.	.	.	16bb'\JJ	.	.
*	*	*Xrep	*	*	*	*	*	*	*	*	*
=115	=115	=115	=115	=115	=115	=115	=115	=115	=115	=115	=115
*	*	*rep	*	*	*	*	*	*	*	*	*
8E\	.	16EE'\LL	.	8e/L	16B/LL	.	8g/L	.	16bb'\LL	.	.
.	.	16EE'\	.	.	16G/	.	.	.	16eee'\	.	.
4r	.	16EE'\	.	8g/	16B/	.	8ee/	.	16eee'\	.	.
.	.	16EE'\	.	.	16G/	.	.	.	16ggg'\	.	.
.	.	16EE'\	.	8b/J	16B/	.	8gg/J	.	16ggg'\	.	.
.	.	16EE'\JJ	.	.	16G/JJ	.	.	.	16bbb'\JJ	.	.
*	*	*Xrep	*	*	*	*	*	*	*	*	*
!	!	!LO:MO:null:mod=*Xtremolo	!	!	!	!	!	!	!	!	!
*	*	*	*	*	*	*	*	*	*	*	*
=116	=116	=116	=116	=116	=116	=116	=116	=116	=116	=116	=116
8E\	.	8EE/	.	8g/	8G/	.	8ee\	.	8bbb\	.	.
4r	.	4r	.	4r	4ryy	.	4r	.	4r	.	.
*	*	*	*	*v	*v	*	*	*	*	*	*
=117	=117	=117	=117	=117	=117	=117	=117	=117	=117	=117
!	!	!	!	!	!	!	!	!LO:MO:null:mod=!LO&colon;TX&colon;a&colon;t=pizz.	!	!
!	!	!LO:TX:a:t=piz:mod=pizz.	!	!LO:TX:a:t=piz:mod=pizz.	!	!LO:TX:a:t=piz:mod=pizz.	!	!LO:TX:b:t=piz	!	!
4.r	.	8BB\	.	8a\	.	8dd#X\	.	8bb\	.	.
.	.	4r	.	4r	.	4r	.	4r	.	.
=118	=118	=118	=118	=118	=118	=118	=118	=118	=118	=118
!	!	!	!	!	!	!	!	!LO:TX:a:t=piz:mod=	!	!
4.r	.	8E\	.	8g\	.	8b\	.	8ee\	.	.
.	.	4r	.	4r	.	4r	.	4r	.	.
!!LO:TX:a:B:rj:t=:mod=[Fine]
=119||	=119||	=119||	=119||	=119||	=119||	=119||	=119||	=119||	=119||	=119||
*>C	*>C	*>C	*>C	*>C	*>C	*>C	*>C	*>C	*	*>C
*k[]	*	*k[]	*	*k[]	*	*k[]	*	*k[]	*	*
*M3/8	*	*M3/8	*	*M3/8	*	*M3/8	*	*M3/8	*	*
!!!OMD:
!!!OMD-mod: Allegretto grazioso
!	!	!LO:MO:null:mod=!LO&colon;TX&colon;a&colon;t=[arco]	!	!LO:MO:null:mod=!LO&colon;TX&colon;a&colon;t=[arco]	!	!LO:MO:null:mod=!LO&colon;TX&colon;a&colon;t=[arco]	!	!	!	!
!	!	!	!	!	!	!	!	!	!	!
!	!	!LO:MO:null:mod=!LO&colon;TX&colon;a&colon;t=[con sordino]	!	!LO:MO:null:mod=!LO&colon;TX&colon;a&colon;t=[con sordino]	!	!LO:TX:a:t=con sordini:mod=con sordino	!	!LO:TX:a:t=Allegretto grazioso:mod=	!	!
!	!	!	!	!	!	!	!	!	!	!
4.r	.	(8C\L	.	(8G/L	.	(8e/L	.	4.r	.	.
.	.	8FF\	.	8A/	.	8f/	.	.	.	.
.	.	8C\J	.	8G/J	.	8e/J	.	.	.	.
=120	=120	=120	=120	=120	=120	=120	=120	=120	=120	=120
4.r	.	8F\L	.	8A/L	.	8d/L	.	4.r	.	.
.	.	8C\	.	8G/	.	8e/	.	.	.	.
.	.	8FF\J)	.	8A/J)	.	8c/J)	.	.	.	.
=121	=121	=121	=121	=121	=121	=121	=121	=121	=121	=121
4.r	.	(4EE\	.	(4G/	.	(4g/	.	4.r	.	.
.	.	8DD\	.	8A/	.	8f/	.	.	.	.
=122	=122	=122	=122	=122	=122	=122	=122	=122	=122	=122
4.r	.	4GG\)	.	4B/)	.	4d/)	.	4r	.	.
!	!	!	!	!	!	!	!	!LO:MO:null:mod=!LO&colon;TX&colon;a&colon;t=[arco]	!	!
!	!	!	!	!	!	!	!	!	!	!
!	!	!	!	!	!	!	!	!LO:MO:null:mod=!LO&colon;TX&colon;a&colon;t=[con sordino]	!	!
!	!	!	!	!	!	!	!	!	!	!
.	.	8r	.	8r	.	8r	.	8g/	.	.
!!LO:PB:g=original
=123	=123	=123	=123	=123	=123	=123	=123	=123	=123	=123
8F\	.	(4.F\	.	4A/	.	(4.d/	.	(8aa\L	.	.
8r	.	.	.	.	.	.	.	16ff\L	.	.
.	.	.	.	.	.	.	.	16ee\J	.	.
8r	.	.	.	8B/	.	.	.	8dd\J)	.	.
=124	=124	=124	=124	=124	=124	=124	=124	=124	=124	=124
8E\	.	4E\	.	[4.c/	.	8e/	.	(8gg\L	.	.
8r	.	.	.	.	.	[>4g/)	.	16ee\L	.	.
.	.	.	.	.	.	.	.	16dd\J	.	.
8BB/	.	[8AA\)	.	.	.	.	.	8cc\J)	.	.
=125	=125	=125	=125	=125	=125	=125	=125	=125	=125	=125
8r	.	(8AA\]	.	4.c/_	.	(8g/]	.	(8ee\L	.	.
8D\	.	4D\	.	.	.	4f#X/	.	16dd\L	.	.
.	.	.	.	.	.	.	.	16cc\	.	.
8r	.	.	.	.	.	.	.	16a\	.	.
.	.	.	.	.	.	.	.	16d\JJ)	.	.
=126	=126	=126	=126	=126	=126	=126	=126	=126	=126	=126
8GG/	.	4.GG\)	.	8c/L]	.	4fn/	.	(>(4a/	.	.
8r	.	.	.	16B/L	.	.	.	.	.	.
.	.	.	.	16A/J	.	.	.	.	.	.
8r	.	.	.	8G/J	.	16e/LL	.	[8g/)	.	.
.	.	.	.	.	.	16d#X/JJ)	.	.	.	.
=127	=127	=127	=127	=127	=127	=127	=127	=127	=127	=127
4.r	.	(8C\L	.	(8G/L	.	(8e/L	.	8g/])	.	.
.	.	8FF\	.	8A/	.	8f/	.	4r	.	.
!	!	!	!	!LO:SIC:s=8GJ	!	!	!	!	!	!
.	.	8C\J	.	8G/	.	8e/J	.	.	.	.
=128	=128	=128	=128	=128	=128	=128	=128	=128	=128	=128
!	!	!	!	!LO:SIC:s=8AL	!	!	!	!	!	!
4.r	.	8F\L	.	8A/	.	8d/L	.	4.r	.	.
.	.	8C\	.	8G/	.	8e/	.	.	.	.
.	.	8AA\J)	.	8A/J)	.	8c/J)	.	.	.	.
=129	=129	=129	=129	=129	=129	=129	=129	=129	=129	=129
!	!	!	!	!	!	!LO:SIC:s=(4g	!	!	!	!
4.r	.	(4EE\	.	(4B/	.	4g/	.	4.r	.	.
.	.	8AA\	.	[8c/	.	8a/	.	.	.	.
=130	=130	=130	=130	=130	=130	=130	=130	=130	=130	=130
!	!	!	!	!	!	!LO:SIC:s=4.g)	!	!	!	!
4.r	.	4.EE\)	.	4.c/])	.	4.g/	.	4r	.	.
.	.	.	.	.	.	.	.	(8cc/	.	.
!!LO:LB:g=original
=131	=131	=131	=131	=131	=131	=131	=131	=131	=131	=131
!	!	!	!	!	!	!	!	!LO:SIC:s=8cccL	!	!
8D\	.	4.D\	.	4.c/	.	(4f#X/	.	(8ccc\L)	.	.
4r	.	.	.	.	.	.	.	16aa\L	.	.
.	.	.	.	.	.	.	.	16gg\J	.	.
!	!	!	!	!	!	!LO:SIC:s=8a	!	!	!	!
.	.	.	.	.	.	(8a/	.	8ff#X\J)	.	.
=132	=132	=132	=132	=132	=132	=132	=132	=132	=132	=132
!	!	!	!	!	!	!LO:SIC:s=8gL	!	!	!	!
8D#X\	.	4D#X\	.	4.B/	.	8g/L)	.	(8bb\L	.	.
8r	.	.	.	.	.	16b/L	.	16gg\L	.	.
.	.	.	.	.	.	16a/J	.	16ff#X\J	.	.
8E\	.	8E\	.	.	.	8g/J)	.	8ee\J)	.	.
=133	=133	=133	=133	=133	=133	=133	=133	=133	=133	=133
8F#X\	.	4F#X\	.	4.A/	.	4e/	.	16dd#X/LL	.	.
.	.	.	.	.	.	.	.	16cc/	.	.
8r	.	.	.	.	.	.	.	16b/	.	.
.	.	.	.	.	.	.	.	16a/	.	.
8BB\	.	8BB\	.	.	.	8d#X/	.	16f#X/	.	.
!	!	!	!	!	!	!	!	!LO:TX:t=P:problem=trzy skreślone takty	!	!
.	.	.	.	.	.	.	.	16g/JJ	.	.
=134	=134	=134	=134	=134	=134	=134	=134	=134	=134	=134
!	!	!	!LO:DY:a	!	!	!	!	!	!	!
8E\	.	(8EE/L	<	8G/	.	8e/	.	8e/	.	.
8r	.	16EE/L	.	4r	.	4r	.	4r	.	.
.	.	32FF/L	.	.	.	.	.	.	.	.
.	.	32GG/JJJ)	.	.	.	.	.	.	.	.
!	!	!	!LO:MO:null:mod=.	!	!	!	!	!	!	!
8r	.	32AA/LLL	[	.	.	.	.	.	.	.
.	.	32BB/	.	.	.	.	.	.	.	.
.	.	32C#X/	.	.	.	.	.	.	.	.
!	!	!	!LO:MO:null:mod=[	!	!	!	!	!	!	!
.	.	32D#X/JJJ	.	.	.	.	.	.	.	.
=135	=135	=135	=135	=135	=135	=135	=135	=135	=135	=135
4.r	.	4.E\	.	[>4.G/	.	(8g/L	.	[4.g/	.	.
.	.	.	.	.	.	16e/L	.	.	.	.
.	.	.	.	.	.	16d/J	.	.	.	.
.	.	.	.	.	.	8c/J)	.	.	.	.
!!LO:LB:g=original
=136	=136	=136	=136	=136	=136	=136	=136	=136	=136	=136
(8E\	.	(<<8EE/L	.	4G/]	.	4B/	.	4.g/]	.	.
4r	.	16EE/L	.	.	.	.	.	.	.	.
.	.	32FF/L	.	.	.	.	.	.	.	.
.	.	32GG/JJJ	.	.	.	.	.	.	.	.
.	.	32AA/LLL	.	8r	.	8r	.	.	.	.
.	.	32BB/	.	.	.	.	.	.	.	.
.	.	32C#X/	.	.	.	.	.	.	.	.
.	.	32D#X/JJJ	.	.	.	.	.	.	.	.
=137	=137	=137	=137	=137	=137	=137	=137	=137	=137	=137
8E\)	.	([4.E\)	.	([4.G/	.	(8g/L	.	(>[>4.g/	.	.
4r	.	.	.	.	.	16e/L	.	.	.	.
.	.	.	.	.	.	16d/J	.	.	.	.
.	.	.	.	.	.	8c/J	.	.	.	.
=138	=138	=138	=138	=138	=138	=138	=138	=138	=138	=138
4.ryy	.	8E\L]	.	8G/L]	.	4B/	.	4g/]	.	.
.	.	8E-X\	.	16A/L	.	.	.	.	.	.
.	.	.	.	16G/J	.	.	.	.	.	.
.	.	8D\J)	.	8F#X/J)	.	8c/)	.	8a/)	.	.
=139	=139	=139	=139	=139	=139	=139	=139	=139	=139	=139
4.ryy	.	(8GG\L	.	8G/	.	(8c/L	.	(>4b/	.	.
.	.	8G\	.	([>4B/	.	16g/L	.	.	.	.
.	.	.	.	.	.	16f#X/J	.	.	.	.
.	.	8C#X\J	.	.	.	8e/J	.	[8cc#X/	.	.
=140	=140	=140	=140	=140	=140	=140	=140	=140	=140	=140
4.ryy	.	8F#X\	.	8B'/L]	.	4.e/)	.	4cc#/]	.	.
.	.	4FF#X\)	.	16A#X/L	.	.	.	.	.	.
.	.	.	.	16G#X/J	.	.	.	.	.	.
.	.	.	.	8A#/J)	.	.	.	[8ff#X/)	.	.
=141	=141	=141	=141	=141	=141	=141	=141	=141	=141	=141
8BB/	.	(4BB\	.	((4B/	.	(8d/	.	(8ff#/L]	.	.
8r	.	.	.	.	.	4f#X/	.	16ee/L	.	.
.	.	.	.	.	.	.	.	16dd/	.	.
8r	.	8D\	.	[8f#X\	.	.	.	16cc#X/	.	.
.	.	.	.	.	.	.	.	16b/JJ	.	.
=142	=142	=142	=142	=142	=142	=142	=142	=142	=142	=142
4.r	.	4.E\	.	8f#\L]	.	4.g/	.	4b/	.	.
.	.	.	.	16e\L	.	.	.	.	.	.
.	.	.	.	16d\	.	.	.	.	.	.
.	.	.	.	16c#X\	.	.	.	[>8bb/)	.	.
.	.	.	.	16B\JJ))	.	.	.	.	.	.
=143	=143	=143	=143	=143	=143	=143	=143	=143	=143	=143
4.r	.	(4.D\)	.	(4.B/	.	(4.f#X/)	.	16bb/LL]	.	.
.	.	.	.	.	.	.	.	16ff#X/	.	.
.	.	.	.	.	.	.	.	16ee/	.	.
.	.	.	.	.	.	.	.	16dd/	.	.
.	.	.	.	.	.	.	.	16cc#X/	.	.
.	.	.	.	.	.	.	.	[16b/JJ	.	.
!!LO:PB:g=original
=144	=144	=144	=144	=144	=144	=144	=144	=144	=144	=144
4.r	.	16G\)	.	(16B/LL)	.	16g/)	.	16b/]	.	.
.	.	16r	.	16c#X/	.	16r	.	16r	.	.
.	.	4r	.	16d/	.	4r	.	4r	.	.
.	.	.	.	16e/	.	.	.	.	.	.
.	.	.	.	16f#X/	.	.	.	.	.	.
.	.	.	.	16b/JJ)	.	.	.	.	.	.
=145	=145	=145	=145	=145	=145	=145	=145	=145	=145	=145
4.r	.	(4F\	.	(4a/	.	(4ee/	.	(16ccc/LL	.	.
.	.	.	.	.	.	.	.	16ddd/	.	.
.	.	.	.	.	.	.	.	16ccc/	.	.
.	.	.	.	.	.	.	.	16aa/)	.	.
.	.	8B\	.	8f/	.	8dd#X/	.	(16bb/	.	.
.	.	.	.	.	.	.	.	16ccc/JJ	.	.
=146	=146	=146	=146	=146	=146	=146	=146	=146	=146	=146
4r	.	8E\L	.	8g#X/L	.	8ddn/L	.	16bb/LL	.	.
.	.	.	.	.	.	.	.	16gg#X/)	.	.
.	.	8A\	.	8e/	.	8cc#X/	.	(16aa/	.	.
.	.	.	.	.	.	.	.	16bb/	.	.
8D\	.	8D\J	.	8f#X/J)	.	8ccn/J	.	16aa/	.	.
.	.	.	.	.	.	.	.	16ff#X/JJ)	.	.
=147	=147	=147	=147	=147	=147	=147	=147	=147	=147	=147
8G\	.	8G\)	.	(16d/LL	.	8b/)	.	8gg/	.	.
.	.	.	.	16e/	.	.	.	.	.	.
8r	.	4r	.	16d/	.	4r	.	4r	.	.
.	.	.	.	16f#X/	.	.	.	.	.	.
8r	.	.	.	16g/	.	.	.	.	.	.
.	.	.	.	16e/JJ	.	.	.	.	.	.
=148	=148	=148	=148	=148	=148	=148	=148	=148	=148	=148
4.r	.	4.r	.	16d/LL	.	4.r	.	4.r	.	.
.	.	.	.	16B/	.	.	.	.	.	.
.	.	.	.	16G/	.	.	.	.	.	.
.	.	.	.	16B/	.	.	.	.	.	.
.	.	.	.	16c/	.	.	.	.	.	.
.	.	.	.	16d/JJ)	.	.	.	.	.	.
=149	=149	=149	=149	=149	=149	=149	=149	=149	=149	=149
4.ryy	.	(4F\	.	(4e\	.	(16cc\LL	.	(>4aa/	.	.
.	.	.	.	.	.	16dd\	.	.	.	.
.	.	.	.	.	.	16cc\	.	.	.	.
.	.	.	.	.	.	16a\)	.	.	.	.
.	.	8B\	.	8d#X\	.	(16b\	.	8ff#X/	.	.
.	.	.	.	.	.	16cc\JJ	.	.	.	.
=150	=150	=150	=150	=150	=150	=150	=150	=150	=150	=150
*	*	*	*	*	*	*^	*	*	*	*
!	!	!	!	!	!	!LO:N:vis=4	!	!	!	!	!
!	!	!	!	!	!	!LO:SIC:s=16ryyyy	!	!	!	!	!
4ryy	.	8E\L	.	8dn\L	.	16b\	16b/LL	.	8gg/L	.	.
!	!	!	!	!	!	!LO:N:vis=4	!	!	!	!	!
!	!	!	!	!	!	!LO:SIC:s=16ryyyy	!	!	!	!	!
.	.	.	.	.	.	16g\	16g/)	.	.	.	.
!	!	!	!	!	!	!LO:SIC:s=4ryyyy	!	!	!	!	!
.	.	8A\	.	8c#X\	.	4ryy	(16a/	.	8ee/	.	.
.	.	.	.	.	.	.	16b/	.	.	.	.
8D\	.	8D\J)	.	8cn\J	.	.	16a/	.	8ffn/J	.	.
.	.	.	.	.	.	.	16f/JJ	.	.	.	.
*	*	*	*	*	*	*v	*v	*	*	*	*
=151	=151	=151	=151	=151	=151	=151	=151	=151	=151	=151
8G\	.	(16G\LL	.	8B\)	.	8g/)	.	8dd/)	.	.
.	.	16A\	.	.	.	.	.	.	.	.
8r	.	16G\	.	4r	.	4r	.	4r	.	.
.	.	16F#X\	.	.	.	.	.	.	.	.
8r	.	16G\	.	.	.	.	.	.	.	.
.	.	16E\JJ)	.	.	.	.	.	.	.	.
!!LO:LB:g=original
=152	=152	=152	=152	=152	=152	=152	=152	=152	=152	=152
4.r	.	(16Fn\LL	.	4.r	.	4.r	.	4.r	.	.
.	.	16G\	.	.	.	.	.	.	.	.
.	.	16F\	.	.	.	.	.	.	.	.
.	.	16E\	.	.	.	.	.	.	.	.
.	.	16F\	.	.	.	.	.	.	.	.
.	.	16D\JJ)	.	.	.	.	.	.	.	.
=153	=153	=153	=153	=153	=153	=153	=153	=153	=153	=153
(8C\L	.	(8C\L	.	(<[4.c/	.	(8g/L	.	(8ee/L	.	.
8F\	.	8F\	.	.	.	8a/	.	8ff/	.	.
8C\J	.	8C\J	.	.	.	8g/J	.	8ee/J	.	.
=154	=154	=154	=154	=154	=154	=154	=154	=154	=154	=154
8FF\L	.	8FF\L	.	4.c/_	.	8a/L	.	8dd/L	.	.
8C\	.	8C\	.	.	.	8g/	.	8ee/	.	.
8F\J)	.	8F\J)	.	.	.	8a/J	.	8cc/J	.	.
=155	=155	=155	=155	=155	=155	=155	=155	=155	=155	=155
(4E\	.	(4E\	.	4.c/]	.	4g/	.	4gg/	.	.
8D\)	.	8D\	.	.	.	8a/	.	8ff/	.	.
=156	=156	=156	=156	=156	=156	=156	=156	=156	=156	=156
4G\	.	4G\)	.	4B\)	.	4b 4g/)	.	4dd/)	.	.
8r	.	8r	.	8r	.	(8G/	.	8r	.	.
=157	=157	=157	=157	=157	=157	=157	=157	=157	=157	=157
4.r	.	(4.F\	.	(4.A/	.	8a/L	.	8r	.	.
.	.	.	.	.	.	16f/L	.	(8aa\L	.	.
.	.	.	.	.	.	16e/J	.	.	.	.
.	.	.	.	.	.	8d/J)	.	[8bb\J)	.	.
=158	=158	=158	=158	=158	=158	=158	=158	=158	=158	=158
!	!	!	!	!	!	!	!LO:MO:null:mod=!LO&colon;HP&colon;ed=brack	!	!	!
!	!	!	!	!	!	!	!	!	!	!
!	!	!	!	!	!	!	!LO:MO:null:mod=<	!	!	!
4.r	.	4.E\)	.	4.G/)	.	(8g/L	.	8bb\L]	.	<
.	.	.	.	.	.	16e/L	.	(8bb\	.	.
.	.	.	.	.	.	16d/J	.	.	.	.
!	!	!	!	!	!	!	!LO:MO:null:mod=[[	!	!	!
.	.	.	.	.	.	8c/J)	.	8ccc\J)	.	[[
=159	=159	=159	=159	=159	=159	=159	=159	=159	=159	=159
4.r	.	8r	.	8r	.	(8b-X/L	.	8r	.	.
.	.	(4G\	.	(4B-X/	.	16g/L	.	(8bb-X\L	.	.
.	.	.	.	.	.	16f/J	.	.	.	.
.	.	.	.	.	.	8e/J)	.	[8ccc#X\J	.	.
=160	=160	=160	=160	=160	=160	=160	=160	=160	=160	=160
!	!	!	!	!	!	!	!LO:MO:null:mod=!LO&colon;HP&colon;ed=brack	!	!	!
!	!	!	!	!	!	!	!	!	!	!
!	!	!	!	!	!	!	!LO:MO:null:mod=<	!	!	!
4.r	.	4.F\)	.	4.A/)	.	(8a/L	.	8ccc#\L])	.	<
.	.	.	.	.	.	16f/L	.	(8ccc#X\	.	.
.	.	.	.	.	.	16e/J	.	.	.	.
!	!	!	!	!	!	!	!LO:MO:null:mod=[[	!	!	!
.	.	.	.	.	.	8d/J)	.	[8ddd\J)	.	[[
!!LO:LB:g=original
=161	=161	=161	=161	=161	=161	=161	=161	=161	=161	=161
8E\	.	(4E\	.	(<16G/LL	.	4.g/	.	8ddd\L]	.	.
.	.	.	.	16A/	.	.	.	.	.	.
8r	.	.	.	16B/	.	.	.	(8ddd\	.	.
.	.	.	.	16A/	.	.	.	.	.	.
8AA/	.	8AA\	.	16B/	.	.	.	8eee\J	.	.
.	.	.	.	16c#X/JJ	.	.	.	.	.	.
=162	=162	=162	=162	=162	=162	=162	=162	=162	=162	=162
!	!	!	!LO:MO:null:mod=!LO&colon;HP&colon;ed=brack	!	!LO:MO:null:mod=!LO&colon;HP&colon;ed=brack	!	!LO:MO:null:mod=!LO&colon;HP&colon;ed=brack	!	!	!
!	!	!	!	!	!	!	!	!	!	!
!	!	!	!LO:MO:null:mod=<	!	!LO:MO:null:mod=<	!	!LO:MO:null:mod=<	!	!	!
8D\	.	4.D\)	.	(4d\)	.	(16f/LL	.	8fff#X\L)	.	<
.	.	.	.	.	.	16g/	.	.	.	.
8r	.	.	.	.	.	16a/	.	8fff#\	.	.
.	.	.	.	.	.	16g#X/	.	.	.	.
8r	.	.	.	8c\)	.	16a/	.	8fff#X\J	.	.
.	.	.	.	.	.	16a#X/JJ)	.	.	.	.
=163	=163	=163	=163	=163	=163	=163	=163	=163	=163	=163
8GG/	.	8D 8GG\	.	16B\LL	.	8b 8d/	.	[<4.gggTT\	.	f
.	.	.	.	16c\	.	.	.	.	.	.
8r	.	4r	.	16d\	.	4r	.	.	.	.
.	.	.	.	16e\	.	.	.	.	.	.
8r	.	.	.	16f\	.	.	.	.	.	.
.	.	.	.	16f#X\JJ	.	.	.	.	.	.
=164	=164	=164	=164	=164	=164	=164	=164	=164	=164	=164
!	!	!LO:TX:a:t=piz:mod=pizz.	!	!	!	!	!	!LO:SIC:s=4.ggg_TTT	!	!
8G\	.	8G\	.	4r	.	(16g/LL	.	4.ggg\_<TT	.	.
.	.	.	.	.	.	16a/	.	.	.	.
8r	.	4r	.	.	.	16b/	.	.	.	.
.	.	.	.	.	.	16cc/	.	.	.	.
8r	.	.	.	8r	.	16dd/	.	.	.	.
.	.	.	.	.	.	16dd#X/JJ)	.	.	.	.
=165	=165	=165	=165	=165	=165	=165	=165	=165	=165	=165
!	!	!LO:MO:null:mod=!LO&colon;TX&colon;a&colon;t=[arco]	!	!	!	!	!	!	!	!
!	!	!	!	!	!	!	!	!LO:SIC:s=4.ggg_TTT	!	!
4.ryy	.	(8c\L	.	(<8g/L	.	(8ee/L	.	4.ggg\_<TT	.	.
.	.	8f\	.	8a/	.	8ff/	.	.	.	.
.	.	8c\J	.	8g/J	.	8ee/J	.	.	.	.
=166	=166	=166	=166	=166	=166	=166	=166	=166	=166	=166
!	!	!	!	!	!	!	!	!LO:SIC:s=4.ggg_TTT	!	!
4.ryy	.	8F\L	.	8a/L	.	8dd/L	.	4.ggg\_<TT	.	.
.	.	8c\	.	8g/	.	8ee/	.	.	.	.
.	.	8f\J)	.	8a/J)	.	8cc/J)	.	.	.	.
=167	=167	=167	=167	=167	=167	=167	=167	=167	=167	=167
!	!	!	!	!	!	!	!	!LO:SIC:s=4.ggg_TTT	!	!
4.ryy	.	(4e\	.	(4g/	.	(4gg/	.	4.ggg\_<TT	.	.
.	.	8d\	.	8a/	.	8ff/	.	.	.	.
=168	=168	=168	=168	=168	=168	=168	=168	=168	=168	=168
!	!	!	!	!	!	!	!	!LO:SIC:s=(4ggg_	!	!
4.ryy	.	4G\)	.	4b/)	.	4dd/)	.	4ggg\_<	.	.
.	.	8r	.	8r	.	8r	.	32ggg\LLL]	.	.
.	.	.	.	.	.	.	.	32fff#X\	.	.
.	.	.	.	.	.	.	.	32ggg\	.	.
!	!	!	!	!	!	!	!	!LO:SIC:s=32ggg#X\JJJ)	!	!
.	.	.	.	.	.	.	.	32ggg#X\JJJ	.	.
=169	=169	=169	=169	=169	=169	=169	=169	=169	=169	=169
4.ryy	.	4.F\	.	4.d\	.	4a/	.	(16aaa\LL	.	.
.	.	.	.	.	.	.	.	16ggg#X\	.	.
.	.	.	.	.	.	.	.	16aaa\	.	.
.	.	.	.	.	.	.	.	16fff\	.	.
.	.	.	.	.	.	8b/	.	16ccc#X\	.	.
.	.	.	.	.	.	.	.	16ddd\JJ)	.	.
!!LO:PB:g=original
=170	=170	=170	=170	=170	=170	=170	=170	=170	=170	=170
4.r	.	(4E\	.	(4.e\	.	(4cc/	.	(16ggg\LL	.	.
.	.	.	.	.	.	.	.	16fff#X\	.	.
.	.	.	.	.	.	.	.	16ggg\	.	.
.	.	.	.	.	.	.	.	16eee\	.	.
.	.	8A\	.	.	.	[8g/	.	16bb\	.	.
.	.	.	.	.	.	.	.	16ccc\JJ)	.	.
=171	=171	=171	=171	=171	=171	=171	=171	=171	=171	=171
4r	.	8D\L	.	4.c\	.	4g/]	.	(16eee\LL	.	.
.	.	.	.	.	.	.	.	16ddd\	.	.
.	.	8A\	.	.	.	.	.	16ccc\	.	.
.	.	.	.	.	.	.	.	16bb\	.	.
8D\	.	8D\J	.	.	.	8f#X/	.	16ccc\	.	.
.	.	.	.	.	.	.	.	16aa\JJ	.	.
=172	=172	=172	=172	=172	=172	=172	=172	=172	=172	=172
8G\	.	4.G\)	.	4.B\)	.	4.g/)	.	16aa\LL	.	.
.	.	.	.	.	.	.	.	16gg\	.	.
8r	.	.	.	.	.	.	.	16ff\	.	.
.	.	.	.	.	.	.	.	16dd\	.	.
8r	.	.	.	.	.	.	.	16b\	.	.
.	.	.	.	.	.	.	.	16g\JJ)	.	.
=173	=173	=173	=173	=173	=173	=173	=173	=173	=173	=173
!	!	!	!	!	!	!	!LO:MO:null:mod=!LO&colon;DY&colon;ed=brack	!	!	!
!	!	!	!	!	!	!	!	!	!	!
!	!	!	!	!	!	!	!LO:MO:null:mod=pp	!	!	!
4.r	.	4.r	.	4.r	.	(16f/LL	.	4r	.	.
.	.	.	.	.	.	16e/	.	.	.	.
.	.	.	.	.	.	16d/	.	.	.	.
.	.	.	.	.	.	16c#X/	.	.	.	.
.	.	.	.	.	.	16d/	.	8r	.	.
.	.	.	.	.	.	16e/JJ	.	.	.	.
=174	=174	=174	=174	=174	=174	=174	=174	=174	=174	=174
!	!	!	!	!	!	!	!	!	!	!LO:MO:null:mod=!LO&colon;DY&colon;ed=brack
!	!	!	!	!	!	!	!	!	!	!
!	!	!	!	!	!	!	!	!	!	!LO:MO:null:mod=pp
4.r	.	8r	.	8r	.	4.f^>/)	.	(16aa\LL	.	.
.	.	.	.	.	.	.	.	16gg#X\	.	.
!	!	!LO:MO:null:mod=!LO&colon;TX&colon;a&colon;t=pizz.	!	!LO:MO:null:mod=!LO&colon;TX&colon;a&colon;t=pizz.	!	!	!	!	!	!
!	!	!LO:TX:b:t=piz	!LO:DY:a	!LO:TX:b:t=piz	!	!	!	!	!	!
.	.	8G\	pp	8a 8B/	pp	.	.	16aa\	.	.
.	.	.	.	.	.	.	.	16ff\	.	.
.	.	8G\	.	8a 8B/	.	.	.	16cc#X\	.	.
.	.	.	.	.	.	.	.	16dd\JJ)	.	.
=175	=175	=175	=175	=175	=175	=175	=175	=175	=175	=175
4.r	.	4.r	.	4.r	.	(16f/LL	.	4.r	.	.
.	.	.	.	.	.	16e/	.	.	.	.
.	.	.	.	.	.	16d/	.	.	.	.
.	.	.	.	.	.	16c#X/	.	.	.	.
.	.	.	.	.	.	16d/	.	.	.	.
.	.	.	.	.	.	16e/JJ	.	.	.	.
=176	=176	=176	=176	=176	=176	=176	=176	=176	=176	=176
4.r	.	8r	.	8r	.	4.f^>/)	.	(16aa\LL	.	.
.	.	.	.	.	.	.	.	16gg#X\	.	.
!	!	!	!LO:DY:a	!	!	!	!	!	!	!
!	!	!	!LO:MO:null:mod=.	!	!LO:MO:null:mod=.	!	!	!	!	!
.	.	8F\	pp	8a 8A/	pp	.	.	16aa\	.	.
.	.	.	.	.	.	.	.	16ff\	.	.
!	!	!	!	!LO:TX:b:t=piz:mod=	!	!	!	!	!	!
.	.	8F\	.	8a 8A/	.	.	.	16cc#X\	.	.
.	.	.	.	.	.	.	.	16dd\JJ)	.	.
!!LO:LB:g=original
=177	=177	=177	=177	=177	=177	=177	=177	=177	=177	=177
4.r	.	4.r	.	4.r	.	(16f/LL	.	4.r	.	.
.	.	.	.	.	.	16e/	.	.	.	.
.	.	.	.	.	.	16d/	.	.	.	.
.	.	.	.	.	.	16c#X/	.	.	.	.
.	.	.	.	.	.	16d/	.	.	.	.
.	.	.	.	.	.	16e/JJ	.	.	.	.
=178	=178	=178	=178	=178	=178	=178	=178	=178	=178	=178
4.r	.	4.r	.	4.r	.	16f/LL	.	4.r	.	.
.	.	.	.	.	.	16e/	.	.	.	.
.	.	.	.	.	.	16d/	.	.	.	.
.	.	.	.	.	.	16e/	.	.	.	.
.	.	.	.	.	.	16f/)	.	.	.	.
.	.	.	.	.	.	16g#X/JJ	.	.	.	.
=179	=179	=179	=179	=179	=179	=179	=179	=179	=179	=179
4.r	.	8r	.	8r	.	(16a/LL	.	8r	.	.
.	.	.	.	.	.	16b/	.	.	.	.
!	!	!LO:MO:null:mod=!LO&colon;TX&colon;a&colon;t=[arco]	!	!LO:MO:null:mod=!LO&colon;TX&colon;a&colon;t=[arco]	!	!	!	!	!	!
!	!	!	!	!	!	!	!	!	!	!
.	.	(8BB\L	.	(8d\L	.	16a/	.	(8ff/L	.	.
.	.	.	.	.	.	16f/)	.	.	.	.
.	.	8E\J	.	8B\J	.	(16g#X/	.	[8ee/J	.	.
.	.	.	.	.	.	16a/JJ	.	.	.	.
=180	=180	=180	=180	=180	=180	=180	=180	=180	=180	=180
4.r	.	8AA\L	.	8c#X/L	.	16gn/LL	.	8ee/L])	.	.
.	.	.	.	.	.	16e/)	.	.	.	.
.	.	8D\	.	8A/	.	(16f#X/	.	([8dd/	.	.
.	.	.	.	.	.	16g/	.	.	.	.
.	.	8GG\J	.	8B/J)	.	16fn/	.	8dd/J]	.	.
.	.	.	.	.	.	16d/JJ)	.	.	.	.
=181	=181	=181	=181	=181	=181	=181	=181	=181	=181	=181
4r	.	8C\)	.	(16G/LL	.	8e/	.	8cc/)	.	.
.	.	.	.	16F/	.	.	.	.	.	.
.	.	4r	.	16E/	.	4r	.	4r	.	.
.	.	.	.	16D/	.	.	.	.	.	.
!	!LO:MO:null:mod=!LO&colon;DY&colon;ed=brack	!	!	!	!	!	!	!	!	!
!	!	!	!	!	!	!	!	!	!	!
!	!LO:MO:null:mod=pp	!	!	!	!	!	!	!	!	!
8GG/	.	.	.	16E/	.	.	.	.	.	.
.	.	.	.	16F/JJ	.	.	.	.	.	.
=182	=182	=182	=182	=182	=182	=182	=182	=182	=182	=182
8C/	.	8r	.	4.G^/)	.	8r	.	(16b-X/LL	.	.
.	.	.	.	.	.	.	.	16a/	.	.
!	!	!LO:TX:a:t=piz:mod=pizz.	!	!	!	!LO:TX:a:t=piz:mod=pizz.	!	!	!	!
4r	.	8C\	.	.	.	8e 8B-X/	.	16b-/	.	.
.	.	.	.	.	.	.	.	16g/	.	.
.	.	8C\	.	.	.	8e 8B-/	.	16e/	.	.
.	.	.	.	.	.	.	.	16g/JJ)	.	.
=183	=183	=183	=183	=183	=183	=183	=183	=183	=183	=183
4.r	.	4.r	.	(16G/LL	.	4.r	.	4.r	.	.
.	.	.	.	16F#X/	.	.	.	.	.	.
.	.	.	.	16E/	.	.	.	.	.	.
.	.	.	.	16D#X/	.	.	.	.	.	.
.	.	.	.	16E/	.	.	.	.	.	.
.	.	.	.	16F#/JJ	.	.	.	.	.	.
=184	=184	=184	=184	=184	=184	=184	=184	=184	=184	=184
4.r	.	8r	.	4.G^/)	.	8r	.	(16b-X/LL	.	.
.	.	.	.	.	.	.	.	16a/	.	.
!	!	!	!	!	!	!LO:TX:a:t=piz:mod=	!	!	!	!
.	.	8C\	.	.	.	8e 8A#X/	.	16b-/	.	.
.	.	.	.	.	.	.	.	16g/	.	.
.	.	8C\	.	.	.	8e 8A#/	.	16e/	.	.
.	.	.	.	.	.	.	.	16g/JJ	.	.
!!LO:LB:g=original
=185	=185	=185	=185	=185	=185	=185	=185	=185	=185	=185
!LO:TX:a:t=piz:mod=	!	!	!	!	!	!	!	!	!	!
8BB\	.	8BB\	.	(16G/LL	.	8e 8Bn/	.	8bn/)	.	.
.	.	.	.	16F#X/	.	.	.	.	.	.
4r	.	4r	.	16E/	.	4r	.	4r	.	.
.	.	.	.	16D#X/	.	.	.	.	.	.
.	.	.	.	16E/	.	.	.	.	.	.
.	.	.	.	16F#/JJ	.	.	.	.	.	.
=186	=186	=186	=186	=186	=186	=186	=186	=186	=186	=186
4.r	.	4.r	.	16G/LL	.	4.r	.	4.r	.	.
.	.	.	.	16F#X/	.	.	.	.	.	.
.	.	.	.	16G/	.	.	.	.	.	.
.	.	.	.	16A#X/	.	.	.	.	.	.
.	.	.	.	16B/	.	.	.	.	.	.
.	.	.	.	16A#/JJ	.	.	.	.	.	.
=187	=187	=187	=187	=187	=187	=187	=187	=187	=187	=187
4.r	.	4.r	.	16B/)	.	16r	.	4.r	.	.
!	!	!	!	!	!	!LO:MO:null:mod=!LO&colon;TX&colon;a&colon;t=[arco]	!	!	!	!
!	!	!	!	!	!	!	!	!	!	!
.	.	.	.	16r	.	(16d#X/LL	.	.	.	.
.	.	.	.	4r	.	16e/	.	.	.	.
.	.	.	.	.	.	16d#/	.	.	.	.
.	.	.	.	.	.	16e/	.	.	.	.
.	.	.	.	.	.	16f#X/JJ	.	.	.	.
=188	=188	=188	=188	=188	=188	=188	=188	=188	=188	=188
4.r	.	4.r	.	4.r	.	16g/LL	.	4.r	.	.
.	.	.	.	.	.	16f#X/	.	.	.	.
.	.	.	.	.	.	16e/	.	.	.	.
.	.	.	.	.	.	16f#/	.	.	.	.
.	.	.	.	.	.	16g/	.	.	.	.
.	.	.	.	.	.	16a#X/JJ)	.	.	.	.
=189	=189	=189	=189	=189	=189	=189	=189	=189	=189	=189
!	!	!	!	!	!	!	!	!LO:TX:a:t=Da Capo il scherzo:mod=	!	!
4.r	.	4.r	.	4.r	.	16b'/LL	.	4.r	.	.
.	.	.	.	.	.	16b'/	.	.	.	.
.	.	.	.	.	.	16b'/	.	.	.	.
.	.	.	.	.	.	16b'/	.	.	.	.
.	.	.	.	.	.	16b'/	.	.	.	.
.	.	.	.	.	.	16b'/JJ	.	.	.	.
!!LO:TX:a:B:t=:mod=Da Capo il Scherzo
==:|!	==:|!	==:|!	==:|!	==:|!	==:|!	==:|!	==:|!	=:|!	==:|!	==:|!
*-	*-	*-	*-	*-	*-	*-	*-	*-	*-	*-
!!!system-decoration: [(s1,s2,s3,s4,s5)]
!!!RDF**kern: > = above
!!!RDF**kern: < = below
!!!ENC: Andrzej Gręziak
!!!END: 2021-12-06
!!!ENC: Leszek Kubiak
!!!END: 2021-12-21
!!!ENC-modern: Andrzej Borzym
!!!END-modern: 2022-08-29
!!!YEC: Copyright 2022 Narodowy Instytut Fryderyka Chopina (https://polishscores.org)
!!!YEM: License CC-BY-4.0 (https://creativecommons.org/licenses/by/4.0)
